!!!!SEGMENT: pl-wtm--r-1695_stefani-jozef--mazur-fantastyczny.krn
!!!cenid: 18xx:2316
!!!COM: Stefani, Józef
!!!COM-rismid: pe30024097
!!!CDT: 1800/04/16-1876/03/19
!!!CNT: Polish
!!!OTL: Mazur fantastyczny
!!!OMD: Allegro.
!!!PDT:
!!!AGN: Secular; Mazurka
!!!SMS-siglum: PL-Wtm
!!!SMS-shelfmark: R 1695
!!!SMS-shelfwork: W
!!!SMS-variant:
!!!SMS-altvar:
!!!NIFC-rismid: 1001114719
!!!URL-scan: http://repozytorium.nifc.pl/skany/pl-wtm-nut--r1695
!!!ONB-nifc: UWAGA: bez podziału na części
!!!AIN: 1 clars 1 cor 2 empty 1 fagot 1 flt 1 oboe 1 tromp 1 tromt 1 viola 2 violn
!!!key:
**kern	**dynam	**kern	**dynam	**kern	**dynam	**kern	**dynam	**kern	**dynam	**kern	**dynam	**kern	**dynam	**kern	**dynam	**kern	**dynam	**kern	**dynam	**kern	**dynam	**kern	**dynam
*part12	*part12	*part11	*part11	*part10	*part10	*part9	*part9	*part8	*part8	*part7	*part7	*part6	*part6	*part5	*part5	*part4	*part4	*part3	*part3	*part2	*part2	*part1	*part1
*staff12	*	*staff11	*	*staff10	*	*staff9	*	*staff8	*	*staff7	*	*staff6	*	*staff5	*	*staff4	*	*staff3	*	*staff2	*	*staff1	*
*Iempty	*	*Iviola	*	*Ivioln	*	*Ivioln	*	*Itromt	*	*Iempty	*	*Itromp	*	*Ifagot	*	*Icor	*	*Iclars	*	*Ioboe	*	*Iflt	*
*I"Baſ si	*	*I"Viole	*	*I"[Violino Secondo]	*	*I"Violini	*	*I"Trombone	*	*I"Banda	*	*I"in C Trombe	*	*I"Fagoto	*	*I"in G. Corni	*	*I"in C Clarinetti	*	*I"Oboe	*	*I"Flauto	*
*I'b	*	*I'vla	*	*I'[vl 2]	*	*I'vl	*	*I'trb	*	*I'bd	*	*I'tr in C	*	*I'fag	*	*I'cor in G	*	*I'cl in C	*	*I'ob	*	*I'fl	*
*clefF4	*	*clefC3	*	*clefG2	*	*clefG2	*	*clefF4	*	*clefF4	*	*clefG2	*	*clefF4	*	*clefG2	*	*clefG2	*	*clefG2	*	*clefG2	*
*ITrd0c0	*	*	*	*	*	*	*	*	*	*	*	*	*	*	*	*ITrd3c5	*	*	*	*	*	*	*
*k[f#]	*	*k[f#]	*	*k[f#]	*	*k[f#]	*	*k[f#]	*	*k[]	*	*k[f#]	*	*k[f#]	*	*k[f#]	*	*k[f#]	*	*k[f#]	*	*k[f#]	*
*G:	*	*G:	*	*G:	*	*G:	*	*G:	*	*G:	*	*G:	*	*G:	*	*G:	*	*G:	*	*G:	*	*G:	*
*M3/4	*	*M3/4	*	*M3/4	*	*M3/4	*	*M3/4	*	*M3/4	*	*M3/4	*	*M3/4	*	*M3/4	*	*M3/4	*	*M3/4	*	*M3/4	*
*>[A,B,B1,B,B2,C,C,D,D,E]	*	*	*	*	*	*	*	*	*	*	*	*	*	*	*	*	*	*	*	*	*	*	*
=1	=1	=1	=1	=1	=1	=1	=1	=1	=1	=1	=1	=1	=1	=1	=1	=1	=1	=1	=1	=1	=1	=1	=1
*>A	*	*	*	*	*	*	*	*	*	*	*	*	*	*	*	*	*	*	*	*	*	*	*
!	!	!	!	!	!	!	!	!	!	!	!	!	!	!	!	!	!	!	!	!	!	!LO:TX:t=P:problem=w kwestii belek - jeśli są dwa głosy, to wtedy ten niższy ma wszystkie belki po prawej stronie	!
!	!	!	!	!	!	!	!	!	!	!	!	!	!	!	!	!	!	!	!	!	!	!LO:TX:t=P:problem=utwór niestety niedokończony, zabrakło skanów	!
4r	.	4r	.	4r	.	4r	.	2.r	.	2.r	.	4r	.	4r	.	2.r	.	4r	.	4r	.	4r	.
4r	.	4r	.	4r	.	4r	.	.	.	.	.	4r	.	4r	.	.	.	4r	.	4r	.	4r	.
!	!	!	!	!	!LO:DY:rj	!	!LO:DY:rj	!	!	!	!	!	!	!	!	!	!	!	!	!	!	!	!
(8qe/	.	(8qe/	f	(8qe/	f	(8qee/	f	.	.	.	.	(8qe/	.	(8qe/	.	.	.	(8qe/	.	(8qee/	.	(8qee/	.
8.d\L)	.	8.d\L)	.	8.d/L)	.	8.dd\L)	.	.	.	.	.	8.d/L)	.	8.d\L)	.	.	.	8.d/L)	.	8.dd\L)	.	8.dd\L)	.
16c#X\Jk|	.	16c#X\Jk|	.	16c#X/Jk|	.	16cc#X\Jk|	.	.	f	.	.	16c#X/Jk|	.	16c\Jk|	.	.	.	16c#X/Jk|	.	16cc#X\Jk|	.	16cc#X\Jk|	.
=2	=2	=2	=2	=2	=2	=2	=2	=2	=2	=2	=2	=2	=2	=2	=2	=2	=2	=2	=2	=2	=2	=2	=2
8d'\L	.	8d/L	.	8d'/L	.	8dd'\L	.	8D/L	.	2.r	.	8d/L	.	8d'\L	.	2.r	.	8d'/L	.	8dd'\L	.	8dd'\L	.
8c#X'\	.	8c#X/	.	8e'/	.	8ee'\	.	8C#X/	.	.	.	8e/ 8c#X/	.	8c#X'\	.	.	.	8e'/	.	8ee'\	.	8ee'\	.
8cn'\	.	8cn/	.	8f#'/	.	8ff#'\	.	8Cn/	.	.	.	8f#/ 8d/	.	8cn'\	.	.	.	8f#/ 8d/	.	8ff#'\	.	8ff#'\	.
8B'\	.	8B/	.	8g'/	.	8gg'\	.	8BB/	.	.	.	8g/ 8d/	.	8B'\	.	.	.	8g/ 8c/	.	8gg'\	.	8gg'\	.
8A'\	.	8A/	.	8a'/	.	8aa'\	.	8AA/	.	.	.	8a/ 8f#/	.	8A'\	.	.	.	8a/ 8f#'/	.	8aa'\	.	8aa'\	.
8G'\J	.	8G/J	.	8b'/J	.	8bb'\J	.	8GG/J	.	.	.	8b/J 8g/	.	8G'\J	.	.	.	8b/J 8g'/	.	8bb'\J	.	8bb'\J	.
=3	=3	=3	=3	=3	=3	=3	=3	=3	=3	=3	=3	=3	=3	=3	=3	=3	=3	=3	=3	=3	=3	=3	=3
*	*	*	*	*	*	*	*	*	*	*^	*	*	*	*	*	*	*	*	*	*	*	*	*
8F#\	.	8F#/	.	8cc\	.	8ccc\	.	8FF#/	.	2.G/	8C\	.	8cc/ 8a/	.	8F#\	.	8a/ 8d/	.	8ccn\ 8a\	.	8aa\	.	8cccn\	.
8r	.	8r	.	8r	.	8r	.	8r	.	.	8r	.	8r	.	8r	.	8r	.	8r	.	8r	.	8r	.
*	*	*	*	*	*	*	*	*	*	*	*rep	*	*	*	*	*	*	*	*	*	*	*	*	*
8G\	.	8G/	.	8b\	.	8bb\	.	8GG/	.	.	8C\	.	8b/ 8g/	.	8G\	.	8b\ 8g\	.	8b\ 8g\	.	8gg\	.	8bb\	.
8r	.	8r	.	8r	.	8r	.	8r	.	.	8r	.	8r	.	8r	.	8r	.	8r	.	8r	.	8r	.
*	*	*	*	*	*	*	*	*	*	*	*Xrep	*	*	*	*	*	*	*	*	*	*	*	*	*
*	*	*	*	*	*	*	*	*	*	*	*rep	*	*	*	*	*	*	*	*	*	*	*	*	*
8C/	.	8g\ 8c\	.	8ee\	.	8eee\	.	8C/	.	.	8C\	.	8ee/ 8g/	.	8C/	.	8cc\ 8g\	.	8ee\ 8cc\	.	8ccc\	.	8eee\	.
8r	.	8r	.	8r	.	8r	.	8r	.	.	8r	.	8r	.	8r	.	8r	.	8r	.	8r	.	8r	.
*	*	*	*	*	*	*	*	*	*	*	*Xrep	*	*	*	*	*	*	*	*	*	*	*	*	*
=4	=4	=4	=4	=4	=4	=4	=4	=4	=4	=4	=4	=4	=4	=4	=4	=4	=4	=4	=4	=4	=4	=4	=4	=4
4D\	.	4g\ 4B\	.	4gg\ 4b\ 4d\	.	4ddd\	.	4D\	.	4G/	4C\	.	4dd/ 4g/	.	4D\	.	4b\ 4g\	.	4dd\ 4b\	.	4bb\	.	4ddd\	.
4r	.	4r	.	4r	.	4r	.	4r	.	4r	4ryy	.	4r	.	4r	.	4r	.	4r	.	4r	.	4r	.
4r	.	4r	.	4r	.	4r	.	4r	.	4r	4ryy	.	4r	.	4r	.	4r	.	4r	.	4r	.	4r	.
=5	=5	=5	=5	=5	=5	=5	=5	=5	=5	=5	=5	=5	=5	=5	=5	=5	=5	=5	=5	=5	=5	=5	=5	=5
4D\	.	4f#\ 4A\	.	4ff#\ 4a\ 4d\	.	4ddd\ 4dd\ 4d\	.	4D\	.	4G/	4C\	.	4dd/ 4f#/	.	4D\	.	4a/ 4d/	.	4ff#\ 4a\	.	4aa\	.	4fff#\	.
4r	.	4r	.	4r	.	4r	.	4r	.	4r	4ryy	.	4r	.	4r	.	4r	.	4r	.	4r	.	4r	.
4r;	.	4r;	.	4r;	.	4r;	.	4r;	.	4r;	4r;yy	.	4r;	.	4r;	.	4r;	.	4r;	.	4r;	.	4r;	.
*	*	*	*	*	*	*	*	*	*	*v	*v	*	*	*	*	*	*	*	*	*	*	*	*	*
!!LO:PB:g=original
=6||	=6||	=6||	=6||	=6||	=6||	=6||	=6||	=6||	=6||	=6||	=6||	=6||	=6||	=6||	=6||	=6||	=6||	=6||	=6||	=6||	=6||	=6||	=6||
*M3/8	*	*M3/8	*	*M3/8	*	*M3/8	*	*M3/8	*	*M3/8	*	*M3/8	*	*M3/8	*	*M3/8	*	*M3/8	*	*M3/8	*	*M3/8	*
*	*	*	*	*	*	*	*	*	*	*^	*	*	*	*	*	*	*	*	*	*	*	*	*
.	.	.	.	.	.	.	.	.	.	16qqG/LL	.	.	.	.	.	.	.	.	.	.	.	.	.	.
!	!	!	!	!	!	!	!	!	!	!	!	!	!	!	!	!	!	!	!	!	!	!	!LO:TX:a:i:t=Introducione	!
!	!	!	!	!	!	!	!	!	!	!	!	!	!	!	!	!	!	!	!	!	!	!	!LO:TX:a:i:t=Moderato	!
.	.	.	.	.	.	.	.	.	.	16qqG/JJ	.	.	.	.	.	.	.	.	.	.	.	.	.	.
8GG/	sf	8d\ 8G\	sf	8g/ 8B/	sf	8gg\ 8b\ 8d\	sf	8GG/	.	8G/	8C\	.	4.r	.	8G\	.	8g/ 8B/	sf	16b/LL 16g/|	.	16gg\LL	.	16bb\LL|	.
.	.	.	.	.	.	.	.	.	.	.	.	.	.	.	.	.	.	.	32r	.	32r	.	32r	.
.	.	.	.	.	.	.	.	.	.	.	.	.	.	.	.	.	.	.	32dd/JJk 32b/|	.	32ccc\JJk	.	32ddd\JJk	.
8r	.	8r	.	8r	.	8r	.	8r	.	8r	8ryy	.	.	.	8r	.	8r	.	(8ee\L 8cc\	.	8ccc\L	.	(8eee\L	.
!	!	!	!	!	!LO:DY:rj	!	!	!	!	!	!	!	!	!	!	!	!	!	!	!	!	!	!	!
16G\	p	16d\ 16G\	p	16g/ 16B/	p	8r	.	8r	.	8r	8ryy	.	.	.	16G\	.	16g/ 16B/	p	16dd\Jk 16b\)	.	16bb\Jk	.	16ddd\Jk)	.
16r	.	16r	.	16r	.	.	.	.	.	.	.	.	.	.	16r	.	16r	.	16r	.	16r	.	16r	.
*	*	*	*	*	*	*	*	*	*	*v	*v	*	*	*	*	*	*	*	*	*	*	*	*	*
=7	=7	=7	=7	=7	=7	=7	=7	=7	=7	=7	=7	=7	=7	=7	=7	=7	=7	=7	=7	=7	=7	=7	=7
8D\	.	8r	.	8r	.	4.r	.	4.r	.	4.r	.	4.r	.	8D\	.	8r	.	16dd\LL 16b\	.	(16bb\LL	.	(16ddd\LL	.
.	.	.	.	.	.	.	.	.	.	.	.	.	.	.	.	.	.	32cc\JJk 32a\	.	32aa\JJk)	.	32ccc\JJk)	.
.	.	.	.	.	.	.	.	.	.	.	.	.	.	.	.	.	.	32r	.	32r	.	32r	.
8r	.	8r	.	8r	.	.	.	.	.	.	.	.	.	8r	.	8r	.	8g#X/L 8e#X/	.	8ee#X\L	.	(8gg#X\L	.
8D\	.	8d\ 8A\	.	8f#/ 8c/	.	.	.	.	.	.	.	.	.	8D\	.	8a/ 8d/	.	8a/J 8f#/	.	8ff#\J	.	8aa\J)	.
=8	=8	=8	=8	=8	=8	=8	=8	=8	=8	=8	=8	=8	=8	=8	=8	=8	=8	=8	=8	=8	=8	=8	=8
.	.	.	.	.	.	(8qaa/	.	.	.	.	.	(8qa/	.	.	.	.	.	.	.	(8qaa/	.	(8qaa/	.
*	*	*	*	*	*	*	*	*	*	*^	*	*	*	*	*	*	*	*	*	*	*	*	*
8E\	<	8r	.	8r	.	16.gg\LL)	.	8r	.	8r	4.rFF	.	16.g/LL)	.	16E\	.	8r	.	4.r	.	16.gg\LL)	.	16.gg\LL)	.
.	.	.	.	.	.	.	.	.	.	.	.	.	.	.	16r	.	.	.	.	.	.	.	.	.
.	.	.	.	.	.	32ff#'\JJk	<	.	.	.	.	.	32f#/JJk|	.	.	.	.	.	.	.	32ff#\JJk|	.	32ff#'\JJk	.
8E\L	.	8e\L 8B\	.	8g/L	<	16ee'\LL	.	8E\L	.	8G/L	.	.	16e'/LL	.	8E\L	.	8b\L 8g\	.	.	.	16ee'\LL	.	16ee'\LL	<
.	.	.	.	.	.	16ff#'\	.	.	.	.	.	.	16f#'/	.	.	.	.	.	.	.	16ff#'\	.	16ff#'\	.
*	*	*	*	*	*	*	*	*	*	*tremolo	*	*	*	*	*	*	*	*	*	*	*	*	*	*
8C\J	[[	8e\J 8c\	.	8a/J 8g/	[[	16gg'\	.	8C\J	.	32G/LL	.	.	16g'/	.	8C\J	.	8a\J 8g\	.	.	.	16gg'\	.	16gg'\	.
.	.	.	.	.	.	.	.	.	.	32G/	.	.	.	.	.	.	.	.	.	.	.	.	.	.
.	.	.	.	.	.	16aa'\JJ	[[	.	.	32G/	.	.	16a'/JJ	.	.	.	.	.	.	.	16aa'\JJ	.	16aa'\JJ	[[
.	.	.	.	.	.	.	.	.	.	32G/JJJ	.	.	.	.	.	.	.	.	.	.	.	.	.	.
*	*	*	*	*	*	*	*	*	*	*Xtremolo	*	*	*	*	*	*	*	*	*	*	*	*	*	*
=9	=9	=9	=9	=9	=9	=9	=9	=9	=9	=9	=9	=9	=9	=9	=9	=9	=9	=9	=9	=9	=9	=9	=9	=9
*	*	*^	*	*	*	*	*	*	*	*	*	*	*	*	*	*	*	*	*	*	*	*	*	*
!	!LO:DY:rj	!	!	!	!	!LO:DY:rj	!	!LO:DY:rj	!	!	!	!	!	!	!	!	!	!	!	!	!	!	!	!	!LO:DY:rj
16BB/	f	16d#X/ 16B/	8ryy	.	16b/ 16f#/	f	16bb\	f	16BB/	.	16G/	8r	.	16b/ 16d#X/	.	16BB/	.	16b\ 16f#\	.	8r	.	16bb\	.	16bb\	f
16r	.	16r	.	.	16r	.	16r	.	16r	.	16r	.	.	16r	.	16r	.	16r	.	.	.	16r	.	16r	.
4B\	.	4d#/	4B\	.	4b/ 4f#/	.	4ff#\ 4b\	.	4BB/	.	4G/	4C\	.	4b/ 4d#/	.	4B\	.	4b\ 4f#^<\	.	4dd#X/ 4f#^/	.	4ff#^<\	.	4ff#^<\	.
*	*	*v	*v	*	*	*	*	*	*	*	*v	*v	*	*	*	*	*	*	*	*	*	*	*	*	*
=10	=10	=10	=10	=10	=10	=10	=10	=10	=10	=10	=10	=10	=10	=10	=10	=10	=10	=10	=10	=10	=10	=10	=10
4.r	.	4.r	.	4.r	.	4.r	.	4.r	.	4.r	.	4.r	.	4.r	.	[4.f#/ [4.B/	.	[4.f#/ [4.d#X/	.	[4.b\	p	16ff#'\LL	.
.	.	.	.	.	.	.	.	.	.	.	.	.	.	.	.	.	.	.	.	.	.	32r	.
.	.	.	.	.	.	.	.	.	.	.	.	.	.	.	.	.	.	.	.	.	.	32bb'\JJk	.
.	.	.	.	.	.	.	.	.	.	.	.	.	.	.	.	.	.	.	.	.	.	(16ccc#Xt\LL	.
.	.	.	.	.	.	.	.	.	.	.	.	.	.	.	.	.	.	.	.	.	.	16bb\J)	.
.	.	.	.	.	.	.	.	.	.	.	.	.	.	.	.	.	.	.	.	.	.	8fff#'\J	.
=11	=11	=11	=11	=11	=11	=11	=11	=11	=11	=11	=11	=11	=11	=11	=11	=11	=11	=11	=11	=11	=11	=11	=11
4.r	.	4.r	.	4.r	.	4.r	.	4.r	.	4.r	.	4.r	.	4.r	.	4.f#/_ 4.B/_	.	4.f#/_ 4.d#X/_	.	4.b\_	<	16ff#\LL	.
.	.	.	.	.	.	.	.	.	.	.	.	.	.	.	.	.	.	.	.	.	.	32r	.
.	.	.	.	.	.	.	.	.	.	.	.	.	.	.	.	.	.	.	.	.	.	32bb\JJk	.
.	.	.	.	.	.	.	.	.	.	.	.	.	.	.	.	.	.	.	.	.	.	(16ccc#Xt\LL	.
.	.	.	.	.	.	.	.	.	.	.	.	.	.	.	.	.	.	.	.	.	.	16bb\J)	.
.	.	.	.	.	.	.	.	.	.	.	.	.	.	.	.	.	.	.	.	.	.	8fff#'\J	.
=12	=12	=12	=12	=12	=12	=12	=12	=12	=12	=12	=12	=12	=12	=12	=12	=12	=12	=12	=12	=12	=12	=12	=12
.	.	.	.	.	.	.	.	.	.	.	.	.	.	.	.	.	.	.	.	.	.	8qccc#X/	<
4.r	.	4.r	.	4.r	.	4.r	.	4.r	.	4.r	.	4.r	.	4.r	.	4.f#/] 4.B/]	.	4.f#/] 4.d#X/]	.	4.b\]	[[	4.bbT\	.
.	.	.	.	.	.	.	.	.	.	.	.	.	.	.	.	.	.	.	.	.	.	((16qqaa/LL	[
.	.	.	f	.	.	.	f	.	f	.	.	.	f	.	f	.	.	.	.	.	.	16qqbb/JJ)	[[
=13	=13	=13	=13	=13	=13	=13	=13	=13	=13	=13	=13	=13	=13	=13	=13	=13	=13	=13	=13	=13	=13	=13	=13
.	.	.	.	.	.	.	.	.	.	16qqG/LL	.	.	.	.	.	.	.	.	.	.	.	.	.
.	.	.	.	.	.	.	.	.	.	16qqG/JJ	.	.	.	.	.	.	.	.	.	.	.	.	.
*	*	*	*	*	*	*	*	*	*	*^	*	*	*	*	*	*	*	*	*	*	*	*	*
!	!LO:DY:rj	!	!	!	!	!	!	!	!	!	!	!	!	!	!	!	!	!	!	!	!	!	!	!
8BB/	f	8f#\ 8B\	.	8ff#\ 8b\	.	8bb\ 8dd#X\	.	8BB/	.	8G/	8C\	.	8f#/ 8d#X/	.	8B\	.	8f#/ 8B/	.	8dd#X/ 8f#/	.	8bb\	f	8bbb\)	f
8r	.	8r	.	8r	.	8r	.	8r	.	8r	8ryy	.	8r	.	8r	.	8r	.	8r	.	8r	.	8r	.
8r	.	8r	.	8r	.	8r	.	8r	.	8r	8ryy	.	8r	.	8r	.	8r	.	8r	.	8r	.	8r	.
=14	=14	=14	=14	=14	=14	=14	=14	=14	=14	=14	=14	=14	=14	=14	=14	=14	=14	=14	=14	=14	=14	=14	=14	=14
16d\ 16D\	.	16f#\ 16A\ 16D\	.	16ff#\ 16a\ 16d\	.	16cccn\ 16dd\	.	16D\	.	8r	8ryy	.	16cc/ 16a/	.	16d\	.	16a\ 16f#\	.	16ff#\ 16ddn\	.	16aa\	.	16cccn\	.
16r	.	16r	.	16r	.	16r	.	16r	.	.	.	.	16r	.	16r	.	16r	.	16r	.	16r	.	16r	.
.	.	.	.	.	.	.	.	.	.	16qqG/LL	.	.	.	.	.	.	.	.	.	.	.	.	.	.
.	.	.	.	.	.	.	.	.	.	16qqG/JJ	.	.	.	.	.	.	.	.	.	.	.	.	.	.
4D\	.	4A/ 4D/	.	4d/ 4c/	.	4f#/ 4A/	.	4D\	.	4G/	4C\	.	4f#/ 4c/	.	4D\	.	4a\ 4f#\	.	4dd\ 4a\	.	4ccn\	.	4ff#^\	.
*	*	*	*	*	*	*	*	*	*	*v	*v	*	*	*	*	*	*	*	*	*	*	*	*	*
=15	=15	=15	=15	=15	=15	=15	=15	=15	=15	=15	=15	=15	=15	=15	=15	=15	=15	=15	=15	=15	=15	=15	=15
*^	*	*	*	*	*	*	*	*	*	*	*	*	*	*	*	*^	*	*	*	*	*	*	*
*tremolo	*	*	*tremolo	*	*	*	*	*	*	*	*	*	*	*	*	*	*	*	*	*	*	*	*	*	*
!	!	!LO:DY:a	!	!	!	!	!	!	!	!	!	!	!	!	!	!	!	!	!	!	!	!	!	!	!
32D/LLL	4.r	p	32d\LLL	p	4.r	.	4.r	.	4.r	.	4.r	.	8r	.	4.r	.	4.d/	4.d\	p	8r	p	4.r	.	4.r	.
32D/	.	.	32d\	.	.	.	.	.	.	.	.	.	.	.	.	.	.	.	.	.	.	.	.	.	.
32D/	.	.	32d\	.	.	.	.	.	.	.	.	.	.	.	.	.	.	.	.	.	.	.	.	.	.
32D/	.	.	32d\	.	.	.	.	.	.	.	.	.	.	.	.	.	.	.	.	.	.	.	.	.	.
32D/	.	.	32d\	.	.	.	.	.	.	.	.	.	16.r	p	.	.	.	.	.	16.r	.	.	.	.	.
32D/	.	.	32d\	.	.	.	.	.	.	.	.	.	.	.	.	.	.	.	.	.	.	.	.	.	.
32D/	.	.	32d\	.	.	.	.	.	.	.	.	.	.	.	.	.	.	.	.	.	.	.	.	.	.
32D/	.	.	32d\	.	.	.	.	.	.	.	.	.	32f#/KLL 32d/|	.	.	.	.	.	.	32f#/KLL 32d/|	.	.	.	.	.
32D/	.	.	32d\	.	.	.	.	.	.	.	.	.	16.a/ 16.f#/|	.	.	.	.	.	.	16.a/ 16.f#/|	.	.	.	.	.
32D/	.	.	32d\	.	.	.	.	.	.	.	.	.	.	.	.	.	.	.	.	.	.	.	.	.	.
32D/	.	.	32d\	.	.	.	.	.	.	.	.	.	.	.	.	.	.	.	.	.	.	.	.	.	.
32D/JJJ	.	.	32d\JJJ	.	.	.	.	.	.	.	.	.	32cc/JJk 32a/|	.	.	.	.	.	.	32cc/JJk 32a/|	.	.	.	.	.
!!LO:PB:g=original
=16	=16	=16	=16	=16	=16	=16	=16	=16	=16	=16	=16	=16	=16	=16	=16	=16	=16	=16	=16	=16	=16	=16	=16	=16	=16
*	*	*	*	*	*tremolo	*	*	*	*	*	*	*	*	*	*	*	*	*	*	*	*	*	*	*	*
!LO:TX:b:t=pizz&colon;	!	!	!	!	!	!	!	!	!	!	!	!	!	!	!	!	!	!	!	!	!	!	!	!	!
32D/LLL	8D\L	.	32d\LLL	.	32f#/LLL	.	4.r	.	4.r	.	4.r	.	16.ee\LL 16.cc\	.	4.r	.	4.d/	4.d\	.	16.ee\LL 16.cc\|	.	4.r	.	4.r	.
32D/	.	.	32d\	.	32f#/	.	.	.	.	.	.	.	.	.	.	.	.	.	.	.	.	.	.	.	.
32D/	.	.	32d\	.	32f#/	.	.	.	.	.	.	.	.	.	.	.	.	.	.	.	.	.	.	.	.
32D/	.	.	32d\	.	32f#/	.	.	.	.	.	.	.	32ee\JJk 32cc\	.	.	.	.	.	.	32ee\JJk 32cc\|	.	.	.	.	.
32E/	8E\	.	32d\	.	32g/	.	.	.	.	.	.	.	8dd\L 8b\	.	.	.	.	.	.	8dd\L 8b'\	.	.	.	.	.
32E/	.	.	32d\	.	32g/	.	.	.	.	.	.	.	.	.	.	.	.	.	.	.	.	.	.	.	.
32E/	.	.	32d\	.	32g/	.	.	.	.	.	.	.	.	.	.	.	.	.	.	.	.	.	.	.	.
32E/	.	.	32d\	.	32g/	.	.	.	.	.	.	.	.	.	.	.	.	.	.	.	.	.	.	.	.
32F#/	8F#\J	.	32d\	.	32a/	.	.	.	.	.	.	.	8cc\J 8a\	.	.	.	.	.	.	8cc\J 8a'\	.	.	.	.	.
32F#/	.	.	32d\	.	32a/	.	.	.	.	.	.	.	.	.	.	.	.	.	.	.	.	.	.	.	.
32F#/	.	.	32d\	.	32a/	.	.	.	.	.	.	.	.	.	.	.	.	.	.	.	.	.	.	.	.
32F#/JJJ	.	.	32d\JJJ	.	32a/JJJ	.	.	.	.	.	.	.	.	.	.	.	.	.	.	.	.	.	.	.	.
*Xtremolo	*	*	*Xtremolo	*	*Xtremolo	*	*	*	*	*	*	*	*	*	*	*	*	*	*	*	*	*	*	*	*
*	*	*	*	*	*	*	*	*	*	*	*	*	*	*	*	*	*v	*v	*	*	*	*	*	*	*
=17	=17	=17	=17	=17	=17	=17	=17	=17	=17	=17	=17	=17	=17	=17	=17	=17	=17	=17	=17	=17	=17	=17	=17	=17
8G/	8G\	.	8d\	.	8b/	.	16.r	p	4.r	.	4.r	.	8b/ 8g/	.	16.r	.	16.r	p	16b\LL 16g\|	.	16r	.	16.r	.
.	.	.	.	.	.	.	.	.	.	.	.	.	.	.	.	.	.	.	32r	.	(16bb\KL	.	.	.
!	!	!	!	!	!	!	!	!	!	!	!	!	!	!	!LO:N:vis=16	!	!	!	!	!	!	!	!	!
.	.	.	.	.	.	.	(32gg\KKL	.	.	.	.	.	.	.	(32G\KKL	.	(32g/KKL 32B/	.	(32gg\JJk 32b\	.	.	.	(32ggg\KKL	.
8r	8ryy	.	8r	.	8r	.	8dd\J)	.	.	.	.	.	8r	.	8G\J)	.	8g/J 8B/)	.	8dd\ 8b\)	.	8bb\J)	.	8ddd\J)	.
8r	8ryy	.	8r	.	8r	.	8r	.	.	.	.	.	8r	.	8r	.	8r	.	8r	.	8r	.	8r	.
=18	=18	=18	=18	=18	=18	=18	=18	=18	=18	=18	=18	=18	=18	=18	=18	=18	=18	=18	=18	=18	=18	=18	=18	=18
*tremolo	*	*	*tremolo	*	*tremolo	*	*	*	*	*	*	*	*	*	*	*	*	*	*	*	*	*	*	*
32C/LLL	8C\L	.	32c/LLL	.	32e-X/LLL	.	4.r	.	4.r	.	4.r	.	16.ee-X\LL 16.cc\	.	4.r	.	4.r	.	16.ee-X\LL 16.cc\	.	4.r	.	4.r	.
32C/	.	.	32c/	.	32e-/	.	.	.	.	.	.	.	.	.	.	.	.	.	.	.	.	.	.	.
32C/	.	.	32c/	.	32e-/	.	.	.	.	.	.	.	.	.	.	.	.	.	.	.	.	.	.	.
32C/	.	.	32c/	.	32e-/	.	.	.	.	.	.	.	32ee-\JJk 32cc\	.	.	.	.	.	32ee-\JJk 32cc\	.	.	.	.	.
32D/	8D\	.	32B/	.	32g/	.	.	.	.	.	.	.	8dd\L 8b\	.	.	.	.	.	8dd\L 8b\	.	.	.	.	.
32D/	.	.	32B/	.	32g/	.	.	.	.	.	.	.	.	.	.	.	.	.	.	.	.	.	.	.
32D/	.	.	32B/	.	32g/	.	.	.	.	.	.	.	.	.	.	.	.	.	.	.	.	.	.	.
32D/	.	.	32B/	.	32g/	.	.	.	.	.	.	.	.	.	.	.	.	.	.	.	.	.	.	.
32D#X/	8D#\J	.	32c/	.	32f#/	.	.	.	.	.	.	.	8cc\J 8a\	.	.	.	.	.	8cc\J 8a\	.	.	.	.	.
32D#/	.	.	32c/	.	32f#/	.	.	.	.	.	.	.	.	.	.	.	.	.	.	.	.	.	.	.
32D#/	.	.	32c/	.	32f#/	.	.	.	.	.	.	.	.	.	.	.	.	.	.	.	.	.	.	.
32D#/JJJ	.	.	32c/JJJ	.	32f#/JJJ	.	.	.	.	.	.	.	.	.	.	.	.	.	.	.	.	.	.	.
*Xtremolo	*	*	*Xtremolo	*	*Xtremolo	*	*	*	*	*	*	*	*	*	*	*	*	*	*	*	*	*	*	*
=19	=19	=19	=19	=19	=19	=19	=19	=19	=19	=19	=19	=19	=19	=19	=19	=19	=19	=19	=19	=19	=19	=19	=19	=19
8E/	8E\	.	8B/	.	8g/	.	16.r	.	4.r	.	4.r	.	8b/ 8g/	.	16.r	.	16.r	.	8b/ 8g/	.	16.r	.	16.r	.
.	.	.	.	.	.	.	(32bb\KKL 32gg\	.	.	.	.	.	.	.	32E\KKL	.	(32g/KKL 32B/	p	.	.	32gg\KKL	.	(32bb\KKL	.
8r	8ryy	.	8r	.	8r	.	8gg\J 8ee\)	.	.	.	.	.	8r	.	8E\J	.	8g/J 8B/)	.	8r	.	8ee\J	.	8gg\J)	.
8r	8ryy	.	8r	.	8r	.	8r	.	.	.	.	.	8r	.	8r	.	8r	.	8r	.	8r	.	8r	.
*v	*v	*	*	*	*	*	*	*	*	*	*	*	*	*	*	*	*	*	*	*	*	*	*	*
=20	=20	=20	=20	=20	=20	=20	=20	=20	=20	=20	=20	=20	=20	=20	=20	=20	=20	=20	=20	=20	=20	=20	=20
*	*	*	*	*	*	*	*	*	*	*^	*	*	*	*	*	*^	*	*^	*	*	*	*	*
8C/	.	8e\ 8c\	.	8a/ 8g/	.	4.r	.	8r	.	8r	8ryy	.	8r	.	[4.c\	.	[4.a/	[4.g\	.	16r	4.e\	.	16r	.	16r	.
.	.	.	.	.	.	.	.	.	.	.	.	.	.	.	.	.	.	.	.	(16g#X/LL	.	.	(16g#X/LL	.	(16gg#X\LL	.
8r	.	8r	.	8r	.	.	.	8r	.	8r	8ryy	.	8r	.	.	.	.	.	.	16a/	.	.	16a/	.	16aa\	.
.	.	.	.	.	.	.	.	.	.	.	.	.	.	.	.	.	.	.	.	16cc/JJ)	.	.	16cc/JJ)	.	16ccc\JJ)	.
.	.	.	.	.	.	.	.	.	.	16qqG/LL	.	.	.	.	.	.	.	.	.	.	.	.	.	.	.	.
.	.	.	.	.	.	.	.	.	.	16qqG/JJ	.	.	.	.	.	.	.	.	.	.	.	.	.	.	.	.
8r	.	8r	.	8r	.	.	.	8C/	.	8G/	8C\	.	8a/ 8g/	sf	.	.	.	.	.	8ee'/	.	.	8ee'\	.	8eee\	sf
=21	=21	=21	=21	=21	=21	=21	=21	=21	=21	=21	=21	=21	=21	=21	=21	=21	=21	=21	=21	=21	=21	=21	=21	=21	=21	=21
8C/	.	8e-X\ 8c\	.	8a/ 8g/	.	4.r	.	8r	.	8r	8ryy	.	8r	.	4.c\]	.	4.a/]	4.g\]	.	16r	4.e-X\	.	16r	.	16r	.
.	.	.	.	.	.	.	.	.	.	.	.	.	.	.	.	.	.	.	.	(16gn/LL	.	.	(16gn/LL	.	(16ggn\LL	.
8r	.	8r	.	8r	.	.	.	8r	.	8r	8ryy	.	8r	.	.	.	.	.	.	16a/	.	.	16a/	.	16aa\	.
.	.	.	.	.	.	.	.	.	.	.	.	.	.	.	.	.	.	.	.	16cc/JJ)	.	.	16cc/JJ)	.	16ccc\JJ)	.
.	.	.	.	.	.	.	.	.	.	16qqG/LL	.	.	.	.	.	.	.	.	.	.	.	.	.	.	.	.
.	.	.	.	.	.	.	.	.	.	16qqG/JJ	.	.	.	.	.	.	.	.	.	.	.	.	.	.	.	.
8r	.	8r	.	8r	.	.	.	8C/	.	8G/	8C\	.	8a/ 8g/	sf	.	.	.	.	.	8ee-X'\	.	.	8ee-X'\	.	8eee-X'\	sf
*	*	*	*	*	*	*	*	*	*	*	*	*	*	*	*	*	*	*	*	*v	*v	*	*	*	*	*
!!LO:PB:g=original
=22	=22	=22	=22	=22	=22	=22	=22	=22	=22	=22	=22	=22	=22	=22	=22	=22	=22	=22	=22	=22	=22	=22	=22	=22	=22
!	!	!	!	!	!	!	!	!	!	!	!	!	!	!	!	!	!	!	!	!LO:TX:a:i:t=due	!	!	!	!	!
8D\	.	8d\	.	8a/ 8f#/	.	8r	.	8r	.	8r	8ryy	.	8r	.	4d\	.	4a/	4f#\	.	16r	.	16r	.	16r	.
!	!	!	!	!	!	!	!	!	!	!	!	!	!	!	!	!	!	!	!	!	!	!	!	!	!LO:DY:rj
.	.	.	.	.	.	.	.	.	.	.	.	.	.	.	.	.	.	.	.	(16d/LL	.	(16dd\LL	.	(16dd\LL	f
!LO:N:vis=16	!	!	!	!	!	!	!	!	!	!	!	!	!	!	!	!	!	!	!	!	!	!	!	!	!
8r	.	8r	.	8r	.	8r	.	8r	.	8r	8ryy	.	8r	.	.	.	.	.	.	16f#/	.	16ff#\	.	16ff#\	.
.	.	.	.	.	.	.	.	.	.	.	.	.	.	.	.	.	.	.	.	16a/JJ)	.	16aa\JJ)	.	16aa\JJ)	.
.	.	.	.	.	.	.	.	.	.	16qqG/LL	.	.	.	.	.	.	.	.	.	.	.	.	.	.	.
.	.	.	.	.	.	.	.	.	.	16qqG/JJ	.	.	.	.	.	.	.	.	.	.	.	.	.	.	.
!	!	!	!	!	!LO:DY:rj	!	!LO:DY:rj	!	!	!	!	!	!	!	!	!	!	!	!	!	!	!	!	!	!
16d\ 16D\	f	16f#/ 16A/	.	16dd\ 16f#\	f	16ff#\ 16a\	f	16D\	.	16G/	16C\	.	16a/ 16f#/	.	16d\	.	16a/	16f#\	f	16dd\	.	16dd\	.	16ddd\	.
16r;	.	16r;	.	16r;	.	16r;	.	16r;	.	16r;	16r;yy	.	16r;	.	16r;	.	16r;	16r;yy	.	16r;	.	16r;	.	16r;	.
*	*	*	*	*	*	*	*	*	*	*v	*v	*	*	*	*	*	*v	*v	*	*	*	*	*	*	*
=23!|:	=23!|:	=23!|:	=23!|:	=23!|:	=23!|:	=23!|:	=23!|:	=23!|:	=23!|:	=23!|:	=23!|:	=23!|:	=23!|:	=23!|:	=23!|:	=23!|:	=23!|:	=23!|:	=23!|:	=23!|:	=23!|:	=23!|:	=23!|:
*>B	*	*	*	*	*	*	*	*	*	*	*	*	*	*	*	*	*	*	*	*	*	*	*
*M3/8	*	*M3/8	*	*M3/8	*	*M3/8	*	*M3/8	*	*M3/8	*	*M3/8	*	*M3/8	*	*M3/8	*	*M3/8	*	*M3/8	*	*M3/8	*
!	!	!	!	!	!	!	!	!	!	!	!	!	!	!	!	!	!	!	!	!	!	!LO:TX:a:i:t=Mazur	!
!	!	!	!	!	!LO:DY:rj	!LO:TX:a:i:t=Mazur	!LO:DY:rj	!	!	!	!	!	!	!	!	!	!	!	!	!	!	!	!
8GG/	sf	8g\ 8G\	.	8b/ 8d/ 8G/	sf	8b\ 8d'\	sf	4.r	.	4.r	.	4.r	.	8G\	.	8g/ 8B/	sf	16b\LL 16g\|	.	16gg\LL|	sf	16bb'\LL	sf
.	.	.	.	.	.	.	.	.	.	.	.	.	.	.	.	.	.	32r	.	32r	.	32r	.
.	.	.	.	.	.	.	.	.	.	.	.	.	.	.	.	.	.	32dd\JJk 32b\|	.	32bb\JJk|	.	32ddd'\JJk	.
8r	.	8r	.	8r	.	8r	.	.	.	.	.	.	.	8r	.	8r	.	(8ee\L 8cc\	.	(8ccc\L	.	(8eee\L	.
!	!	!	!	!	!LO:DY:rj	!	!	!	!	!	!	!	!	!	!	!	!	!	!	!	!	!	!
16G\	.	16d\ 16G\	.	16g/ 16B/	p	8r	.	.	.	.	.	.	.	16G\	.	16g/ 16B/	p	16dd\Jk 16b\)	.	16bb\Jk)	.	16ddd\Jk)	.
16r	.	16r	.	16r	.	.	.	.	.	.	.	.	.	16r	.	16r	.	16r	.	16r	.	16r	.
=24	=24	=24	=24	=24	=24	=24	=24	=24	=24	=24	=24	=24	=24	=24	=24	=24	=24	=24	=24	=24	=24	=24	=24
8D\	.	8r	.	8r	.	4.r	.	4.r	.	4.r	.	4.r	.	8r	.	8r	.	(32dd\KLL 32b\	.	(32bb\KLL	.	(32ddd\KLL	.
.	.	.	.	.	.	.	.	.	.	.	.	.	.	.	.	.	.	16cc\JJ 16a\)	.	16aa\JJ)	.	16ccc\JJ)	.
.	.	.	.	.	.	.	.	.	.	.	.	.	.	.	.	.	.	32r	.	32r	.	32r	.
8r	.	8r	.	8r	.	.	.	.	.	.	.	.	.	8r	.	8r	.	8g#X/L 8e#X'/	.	8ee#X'\L	.	8gg#X'\L	.
8D\	.	8d\ 8A\	.	8f#/ 8c/	.	.	.	.	.	.	.	.	.	8D\	.	8a/ 8d/	.	8a/J 8f#'/	.	8ff#'\J	.	8aa'\J	.
=25	=25	=25	=25	=25	=25	=25	=25	=25	=25	=25	=25	=25	=25	=25	=25	=25	=25	=25	=25	=25	=25	=25	=25
.	.	.	.	.	.	(8qaa/	.	.	.	.	.	(8qa/	.	.	.	.	.	.	.	(8qaa/	.	(8qaa/	.
*	*	*	*	*	*	*	*	*	*	*^	*	*	*	*	*	*	*	*	*	*	*	*	*
16E\	.	8r	.	8r	.	16.gg\LL)	.	8r	.	8r	4.r	.	16.g/LL)	.	8r	.	8r	.	4.r	.	16.gg\LL)	.	16.gg\LL)	.
16r	.	.	.	.	.	.	.	.	.	.	.	.	.	.	.	.	.	.	.	.	.	.	.	.
.	.	.	.	.	.	32ff#\JJk|	.	.	.	.	.	.	32f#/JJk|	.	.	.	.	.	.	.	32ff#\JJk|	.	32ff#\JJk|	<
8E\L	.	8e\L 8B\	<	8g/L	.	16ee'\LL	.	8E/L	.	8G/	.	.	16e'/LL	.	8e\L	.	8b\L 8g\	<	.	.	16ee'\LL	.	16ee'\LL	.
.	.	.	.	.	.	16ff#'\	.	.	.	.	.	.	16f#'/	.	.	.	.	.	.	.	16ff#'\	.	16ff#'\	.
8C\J	.	8e\J 8c\	[[	8a/J 8g/	.	16gg'\	.	8C/J	.	8GT/	.	.	16g'/	.	8c\J	.	8a\J 8g\	[[	.	.	16gg'\	.	16gg'\	.
.	.	.	.	.	.	16aa'\JJ	.	.	.	.	.	.	16a'/JJ	.	.	.	.	.	.	.	16aa'\JJ	.	16aa'\JJ	[[
!!LO:PB:g=original
=26	=26	=26	=26	=26	=26	=26	=26	=26	=26	=26	=26	=26	=26	=26	=26	=26	=26	=26	=26	=26	=26	=26	=26	=26
*	*	*	*	*	*	*	*	*	*	*	*	*	*^	*	*	*	*	*	*	*	*	*	*	*
!	!LO:DY:rj	!	!	!	!	!	!LO:DY:rj	!	!LO:DY:rj	!	!	!	!	!	!	!	!LO:DY:rj	!	!LO:DY:rj	!	!LO:DY:rj	!	!	!	!LO:DY:rj
16BB/	f	16d#X/ 16B/	.	16b/ 16f#/	.	16bb\	f	16BB/	f	16G/	8r	.	16b/	16d#X\	.	16B\	f	16b\ 16f#\	f	16dd#X/ 16f#/	f	16bb\	.	16bb\	f
16r	.	16r	.	16r	.	16r	.	16r	.	16r	.	.	16r	16ryy	.	16r	.	16r	.	16r	.	16r	.	16r	.
4BB/	.	4d#/ 4B/	.	4b/ 4f#/	.	4ff#\ 4b^<\	.	4BB/	.	4G/	4C\	.	4b/	4d#/	.	4B\	.	4b\ 4f#\	.	4dd#/ 4f#/	.	4ff#\	.	4ff#\	.
*	*	*	*	*	*	*	*	*	*	*v	*v	*	*	*	*	*	*	*	*	*	*	*	*	*	*
*	*	*	*	*	*	*	*	*	*	*	*	*v	*v	*	*	*	*	*	*	*	*	*	*	*
=27	=27	=27	=27	=27	=27	=27	=27	=27	=27	=27	=27	=27	=27	=27	=27	=27	=27	=27	=27	=27	=27	=27	=27
8GG/	sf	8dn/ 8B/	sf	8b/ 8g/	sf	8gg\ 8b\ 8d\	sf	4.r	.	4.r	.	4.r	.	8G\	sf	8g/ 8B/	sf	16b/LL 16g/|	.	16gg\LL|	.	16bb\LL|	.
.	.	.	.	.	.	.	.	.	.	.	.	.	.	.	.	.	.	32r	.	32r	.	32r	.
.	.	.	.	.	.	.	.	.	.	.	.	.	.	.	.	.	.	32dd/JJk 32b/|	.	32bb\JJk|	.	32ddd\JJk|	.
8r	.	8r	.	8r	.	8r	.	.	.	.	.	.	.	8r	.	8r	.	(8ee\L 8cc\	.	(8ccc\L	.	(8eee\L	.
!	!LO:DY:rj	!	!	!	!LO:DY:rj	!	!	!	!	!	!	!	!	!	!LO:DY:rj	!	!	!	!	!	!	!	!
16G\	p	16d/ 16G/	p	16g/ 16B/	p	8r	.	.	.	.	.	.	.	16G\	p	16g/ 16B/	p	16dd\Jk 16b\)	.	16bb\Jk)	.	16ddd\Jk)	.
!	!	!	!	!	!	!	!	!	!	!	!	!	!	!	!	!	!	!	!	!	!	!LO:N:vis=32	!
16r	.	16r	.	16r	.	.	.	.	.	.	.	.	.	16r	.	16r	.	16r	.	16r	.	16r	.
=28	=28	=28	=28	=28	=28	=28	=28	=28	=28	=28	=28	=28	=28	=28	=28	=28	=28	=28	=28	=28	=28	=28	=28
8D\	.	8r	.	8r	.	4.r	.	4.r	.	4.r	.	4.r	.	8d\	.	8r	.	(32dd\KLL 32b\	.	(32bb\KLL	.	(32ddd\KLL	.
.	.	.	.	.	.	.	.	.	.	.	.	.	.	.	.	.	.	16cc\JJ 16a\)	.	16aa\JJ)	.	16ccc\JJ)	.
.	.	.	.	.	.	.	.	.	.	.	.	.	.	.	.	.	.	32r	.	32r	.	32r	.
8r	.	8r	.	8r	.	.	.	.	.	.	.	.	.	8r	.	8r	.	8g#X/L 8e#X'/	.	8ee#X'\L	.	8gg#X'\L	.
8D\	.	8d/ 8A/	.	8f#/ 8c/	.	.	.	.	.	.	.	.	.	8D\	.	8a/ 8d/	.	8a/J 8f#'/	.	8ff#'\J	.	8aa'\J	.
.	.	.	.	.	.	.	.	.	.	.	f	.	.	.	f	.	.	.	.	.	.	.	.
=29	=29	=29	=29	=29	=29	=29	=29	=29	=29	=29	=29	=29	=29	=29	=29	=29	=29	=29	=29	=29	=29	=29	=29
*	*	*	*	*	*	*	*	*	*	*^	*	*	*	*	*	*^	*	*	*	*	*	*	*
!LO:TX:t=P:problem=mixed beam	!	!LO:TX:t=P:problem=mixed beam	!	!	!	!	!	!LO:TUP:a:problem=klamra łukowa	!	!	!	!	!	!	!LO:TUP:a:problem=klamra łukowa	!	!	!	!	!	!	!	!LO:DY:rj	!	!LO:DY:rj
!	!LO:DY:rj	!	!	!	!LO:DY:rj	!	!LO:DY:rj	!LO:TX:t=P:problem=mixed beam	!	!	!	!	!	!LO:DY:rj	!	!	!	!	!	!	!LO:DY:rj	!	!	!	!
16.G\LL	f	16.gn\LL	.	16.g/LL	f	16.b\LL	f	16.G\LL	.	8G/L	4C\	.	16.b\LL 16.g\	f	16.G\LL	.	16g/ 16B/	4ryy	.	16.b\LL 16.g\	f	16.gg\LL	f	16.bb\LL	f
.	.	.	.	.	.	.	.	.	.	.	.	.	.	.	.	.	16r	.	.	.	.	.	.	.	.
32E\K	.	32d\K	.	32b/K	.	32gg\K	.	32E\K	.	.	.	.	32gg\K 32b\	.	32E\K	.	.	.	.	32gg\K 32b\	.	32bb\K	.	32ggg\K	.
16.F#\	.	16.e\	.	16.a/	.	16.ff#\	.	16.F#\	.	32G/LL	.	.	16.ff#\ 16.a\	.	16.F#\	.	8r	.	.	16.ff#\ 16.a\	.	16.aa\	.	16.fff#\	.
.	.	.	.	.	.	.	.	.	.	32G/	.	.	.	.	.	.	.	.	.	.	.	.	.	.	.
.	.	.	.	.	.	.	.	.	.	32G/	.	.	.	.	.	.	.	.	.	.	.	.	.	.	.
32G\K	.	32f#\K	.	32g/K	.	32ee\K	.	32G\K	.	32G/JJ	.	.	32ee\K 32g\	.	32G\K	.	.	.	.	32ee\K 32g\	.	32gg\K	.	32eee\K	.
16.A\	.	16.g\	.	16.f#/	.	16.dd\	.	16.A\	.	8G/J	8ryy	.	16.dd\ 16.f#\	.	16.A\	.	8a/	8a\	.	16.dd\ 16.f#\	.	16.ff#\	.	16.ddd\	.
32AA/JJk	.	32G/JJk	.	32e/JJk	.	32cc#X\JJk	.	32AA/JJk	.	.	.	.	32cc#X\JJk 32e\	.	32AA\JJk	.	.	.	.	32cc#X\JJk 32e\	.	32ee\JJk	.	32ccc#X\JJk	.
*	*	*	*	*	*	*	*	*	*	*	*	*	*	*	*	*	*v	*v	*	*	*	*	*	*	*
=30	=30	=30	=30	=30	=30	=30	=30	=30	=30	=30	=30	=30	=30	=30	=30	=30	=30	=30	=30	=30	=30	=30	=30	=30
16D\	.	16d\	.	16g/	.	16ee\	.	16D\	.	16G/	8r	.	16ee\ 16g\	.	16D\	.	16a/ 16d/	.	16ee\ 16g\	.	16gg\	.	16eee\	.
16r	.	16r	.	16r	.	16r	.	16r	.	16r	.	.	16r	.	16r	.	16r	.	16r	.	16r	.	16r	.
4d\ 4D^<\	.	4d/ 4F#^/	.	4f#^/	.	4dd^<\	.	4D\	.	4G/	4C\	.	4dd/ 4f#/	.	4DD/	.	4a/ 4d/	.	4dd\ 4f#\	.	4ff#\	.	4ddd\	.
*	*	*	*	*	*	*	*	*	*	*v	*v	*	*	*	*	*	*	*	*	*	*	*	*	*
!!LO:PB:g=original
=31:|!|:	=31:|!|:	=31:|!|:	=31:|!|:	=31:|!|:	=31:|!|:	=31:|!|:	=31:|!|:	=31:|!|:	=31:|!|:	=31:|!|:	=31:|!|:	=31:|!|:	=31:|!|:	=31:|!|:	=31:|!|:	=31:|!|:	=31:|!|:	=31:|!|:	=31:|!|:	=31:|!|:	=31:|!|:	=31:|!|:	=31:|!|:
*^	*	*	*	*	*	*	*	*	*	*	*	*	*	*	*	*	*	*	*	*	*	*	*
!	!	!	!	!	!	!	!	!LO:DY:rj	!	!	!	!	!	!	!	!LO:DY:rj	!	!	!	!	!	!	!	!
16D/LL	8D\	.	16D/LL|	.	16f#/LL|	.	16a\LL|	p	4.r	.	4.r	.	4.r	.	8D\	p	8r	p	16a/LL 16f#/	.	16ff#\LL|	.	16aa\LL|	.
16d/	.	.	(16d/	.	32r	.	32r	.	.	.	.	.	.	.	.	.	.	.	32r	.	32r	.	32r	.
.	.	.	.	.	(32cc/JJk	.	(32ee\JJk	.	.	.	.	.	.	.	.	.	.	.	32ee/JJk 32cc/	.	(32ccc\JJk	.	(32eee\JJk|	.
16A/	8r	.	16A/	.	16b/LL)	.	16dd\LL)	.	.	.	.	.	.	.	8r	.	8d/L	.	16dd/LL 16b/	.	16bb\LL)	.	16ddd\LL)	.
16d/	.	.	16d/	.	32r	.	32r	.	.	.	.	.	.	.	.	.	.	.	32r	.	32r	.	32r	.
.	.	.	.	.	(32a/JJk	.	(32cc\JJk	.	.	.	.	.	.	.	.	.	.	.	32cc/JJk 32a/	.	(32aa\JJk	.	(32ccc\JJk|	.
16D/	8r	.	16D/	.	8f#/)	.	8a/)	.	.	.	.	.	.	.	8r	.	8d/J	.	8a/ 8f#/	.	8ff#\)	.	8aa\)	.
16d/JJ	.	.	16d/JJ)	.	.	.	.	.	.	.	.	.	.	.	.	.	.	.	.	.	.	.	.	.
=32	=32	=32	=32	=32	=32	=32	=32	=32	=32	=32	=32	=32	=32	=32	=32	=32	=32	=32	=32	=32	=32	=32	=32	=32
16G/LL	8E\	.	16G/LL|	.	16g/LL|	.	16b\LL|	.	4.r	.	4.r	.	4.r	.	8G\	.	8r	.	16b\LL 16g'\	.	16gg\LL|	.	16bb\LL|	.
16d/	.	.	(16d/	.	32r	.	32r	.	.	.	.	.	.	.	.	.	.	.	32r	.	32r	.	32r	.
.	.	.	.	.	(32cc/JJk	.	(32ee\JJk	.	.	.	.	.	.	.	.	.	.	.	(32ee\JJk 32cc\	.	(32ccc\JJk	.	(32eee\JJk	.
16B/	8r	.	16B/	.	16b\LL)	.	16dd\LL)	.	.	.	.	.	.	.	8d\L	.	8g/L 8B/	.	16dd\LL 16b\)	.	16bb\LL)	.	16ddd\LL)	.
16d/	.	.	16d/	.	32r	.	32r	.	.	.	.	.	.	.	.	.	.	.	32r	.	32r	.	32r	.
.	.	.	.	.	(32dd\JJk	.	(32bb\JJk	.	.	.	.	.	.	.	.	.	.	.	(32bb\JJk 32dd\	.	(32ddd\JJk	.	(32bbb\JJk	.
16G/	8r	.	16G/	.	8b\)	.	8gg\)	.	.	.	.	.	.	.	8d\J	.	8g/J 8B/	.	8gg\ 8b\)	.	8bb\)	.	8ggg\)	.
16d/JJ	.	.	16d/JJ)	.	.	.	.	.	.	.	.	.	.	f	.	.	.	.	.	.	.	.	.	.
=33	=33	=33	=33	=33	=33	=33	=33	=33	=33	=33	=33	=33	=33	=33	=33	=33	=33	=33	=33	=33	=33	=33	=33	=33
*	*	*	*	*	*	*	*	*	*	*	*^	*	*	*	*	*	*	*	*	*	*	*	*	*
!	!	!	!	!LO:DY:rj	!	!	!	!LO:DY:rj	!	!	!	!	!LO:DY:rj	!LO:TX:a:i:t=due	!	!	!	!	!	!	!	!	!	!	!
16D/LL	8D\	.	16D/LL|	f	8r	f	(16gg\LL	f	4.D\	.	8G/L	4C\	f	(16g/LL	.	8D\	.	8r	.	4.r	.	(16gg\LL	.	(16ggg\LL	.
16c/	.	.	(16c/	.	.	.	16ff#\JJ)	.	.	.	.	.	.	16f#/JJ)	.	.	.	.	.	.	.	16ff#\JJ)	.	16fff#\)	.
.	.	.	.	.	.	.	8qff#/	.	.	.	.	.	.	(8qf#/	.	.	.	.	.	.	.	(8qff#/	.	(8qfff#/|	.
!	!	!	!	!	!	!	!	!	!	!	!	!	!	!	!	!	!	!	!LO:DY:rj	!	!	!	!	!	!
*	*	*	*	*	*	*	*	*	*	*	*tremolo	*	*	*	*	*	*	*	*	*	*	*	*	*	*
16A/	8r	.	16A/	.	8a/L 8c/	.	16.ee\LL	.	.	.	32G/LL	.	.	16.e/LL)	.	8c\L	.	8a/L 8d/	f	.	.	16.ee\LL)	.	16.eee\)	.
.	.	.	.	.	.	.	.	.	.	.	32G/	.	.	.	.	.	.	.	.	.	.	.	.	.	.
16c/	.	.	16c/	.	.	.	.	.	.	.	32G/	.	.	.	.	.	.	.	.	.	.	.	.	.	.
.	.	.	.	.	.	.	32dd\JJk|	.	.	.	32G/JJ	.	.	32d/K|	.	.	.	.	.	.	.	32dd\K|	.	32ddd\K|	.
*	*	*	*	*	*	*	*	*	*	*	*Xtremolo	*	*	*	*	*	*	*	*	*	*	*	*	*	*
16D/	8D\	.	16D/	.	8a/J 8c/	.	16ee'\LL	.	.	.	8G/J	8r	.	16e/|	.	8c\J	.	8a/J 8d/	.	.	.	16ee\|	.	16eee\|	.
16c/JJ	.	.	16c/JJ)	.	.	.	16ff#'\JJ	.	.	.	.	.	.	16f#/JJ|	.	.	.	.	.	.	.	16ff#\JJ|	.	16fff#\JJ|	.
=34	=34	=34	=34	=34	=34	=34	=34	=34	=34	=34	=34	=34	=34	=34	=34	=34	=34	=34	=34	=34	=34	=34	=34	=34	=34
*	*	*	*	*	*	*	*	*	*	*	*rep	*	*	*	*	*	*	*	*	*	*	*	*	*	*
16D/LL	8GG\	.	16D/LL|	.	8r	.	(16gg\LL	.	4.GG/	.	8G/L	4C\	.	(16g/LL	.	8G\	.	8r	.	4.r	.	(16gg\LL	.	(16ggg\LL	.
16B/	.	.	(16B/	.	.	.	16ff#\JJ)	.	.	.	.	.	.	16f#/JJ)	.	.	.	.	.	.	.	16ff#\JJ)	.	16fff#\JJ)	.
.	.	.	.	.	.	.	8qff#/	.	.	.	.	.	.	(8qf#/	.	.	.	.	.	.	.	8qff#/	.	8qfff#/	.
*	*	*	*	*	*	*	*	*	*	*	*tremolo	*	*	*	*	*	*	*	*	*	*	*	*	*	*
16G/	8r	.	16G/	.	8g/L 8B/	.	16.ee\LL	.	.	.	32G/LL	.	.	16.e/LL)	.	8d\L	.	8g/L 8B/	.	.	.	16.ee\LL	.	16.eee\LL	.
.	.	.	.	.	.	.	.	.	.	.	32G/	.	.	.	.	.	.	.	.	.	.	.	.	.	.
16B/	.	.	16B/	.	.	.	.	.	.	.	32G/	.	.	.	.	.	.	.	.	.	.	.	.	.	.
.	.	.	.	.	.	.	32dd\JJk|	.	.	.	32G/JJ	.	.	32d/JJk|	.	.	.	.	.	.	.	32dd\JJk	.	32ddd\JJk	.
*	*	*	*	*	*	*	*	*	*	*	*Xtremolo	*	*	*	*	*	*	*	*	*	*	*	*	*	*
16D/	8GG\	.	16D/	.	8g/J 8B/	.	8b\|	.	.	.	8G/J	8r	.	8B/|	.	8d\J	.	8g/J 8B/	.	.	.	8b\	.	8bb\	.
16B/JJ	.	.	16B/JJ)	.	.	.	.	.	.	.	.	.	.	.	.	.	.	.	.	.	.	.	.	.	.
*	*	*	*	*	*	*	*	*	*	*	*Xrep	*	*	*	*	*	*	*	*	*	*	*	*	*	*
*	*	*	*	*	*	*	*	*	*	*	*v	*v	*	*	*	*	*	*	*	*	*	*	*	*	*
!!LO:PB:g=original
=35	=35	=35	=35	=35	=35	=35	=35	=35	=35	=35	=35	=35	=35	=35	=35	=35	=35	=35	=35	=35	=35	=35	=35	=35
16D/LLyy	8D\yy	.	16D/LLyy|	.	16f#/LLyy|	.	16a\LL|	.	4.ryy	.	4.ryy	.	4.ryy	.	8D\yy	pyy	8ryy	pyy	16ayy/LL 16f#/yy	.	16ff#\LLyy|	.	16aa\LLyy|	.
16d/yy	.	.	(16d/yy	.	32ryy	.	32r	.	.	.	.	.	.	.	.	.	.	.	32ryy	.	32ryy	.	32ryy	.
.	.	.	.	.	(yy32cc/JJkyy	.	(32ee\JJk	.	.	.	.	.	.	.	.	.	.	.	32eeyy/JJk 32cc/yy	.	(32ccc\JJkyy	.	(32eee\JJkyy|	.
16A/yy	8ryy	.	16A/yy	.	16b/LL)yy	.	16dd\LL)	.	.	.	.	.	.	.	8ryy	.	8d/Lyy	.	16ddyy/LL 16b/yy	.	16bb\LL)yy	.	16ddd\LL)yy	.
16d/yy	.	.	16d/yy	.	32ryy	.	32r	.	.	.	.	.	.	.	.	.	.	.	32ryy	.	32ryy	.	32ryy	.
.	.	.	.	.	(y32a/JJkyy	.	(32cc\JJk	.	.	.	.	.	.	.	.	.	.	.	32ccyy/JJk 32a/yy	.	(32aa\JJk	.	(32ccc\JJkyy|	.
16D/yy	8ryy	.	16D/yy	.	8f#/)yy	.	8a/)	.	.	.	.	.	.	.	8ryy	.	8d/Jyy	.	8ayy/ 8f#/yy	.	8ff#\)yy	.	8aa\)yy	.
16d/JJyy	.	.	16d/JJ)yy	.	.	.	.	.	.	.	.	.	.	.	.	.	.	.	.	.	.	.	.	.
=32	=32	=32	=32	=32	=32	=32	=32	=32	=32	=32	=32	=32	=32	=32	=32	=32	=32	=32	=32	=32	=32	=32	=32	=32
16G/LLyy	8E\yy	.	16G/LLyy|	.	16g/LLyy|	.	16b\LL|	.	4.ryy	.	4.ryy	.	4.ryy	.	8G\yy	.	8ryy	.	16byy\LL 16g'\yy	.	16gg\LLyy|	.	16bb\LLyy|	.
16d/yy	.	.	(16d/yy	.	32ryy	.	32r	.	.	.	.	.	.	.	.	.	.	.	32ryy	.	32ryy	.	32ryy	.
.	.	.	.	.	(y32cc/JJkyy	.	(32ee\JJk	.	.	.	.	.	.	.	.	.	.	.	(32eeyy\JJk yy32cc\yy	.	(yy32ccc\JJkyy	.	(32eee\JJkyy	.
16B/yy	8ryy	.	16B/yy	.	16b\LL)yy	.	16dd\LL)	.	.	.	.	.	.	.	8d\Lyy	.	8gyy/L 8B/yy	.	16ddyy\LL 16b\)yy	.	16bb\LLyy)	.	16ddd\LL)yy	.
16d/yy	.	.	16d/yy	.	32ryy	.	32r	.	.	.	.	.	.	.	.	.	.	.	32ryy	.	32ryy	.	32ryy	.
.	.	.	.	.	(yy32dd\JJkyy	.	(32bb\JJk	.	.	.	.	.	.	.	.	.	.	.	(32bbyy\JJk yy32dd\yy	.	(32ddd\JJkyy	.	(32bbb\JJkyy	.
16G/yy	8ryy	.	16G/yy	.	8b\)yy	.	8gg\)	.	.	.	.	.	.	.	8d\Jyy	.	8gyy/J 8B/yy	.	8ggyy\ 8b\)yy	.	8bb\)yy	.	8ggg\)yy	.
16d/JJyy	.	.	16d/JJ)yy	.	.	.	.	.	.	.	.	.	.	.	.	.	.	.	.	.	.	.	.	.
*v	*v	*	*	*	*	*	*	*	*	*	*	*	*	*	*	*	*	*	*	*	*	*	*	*
=37	=37	=37	=37	=37	=37	=37	=37	=37	=37	=37	=37	=37	=37	=37	=37	=37	=37	=37	=37	=37	=37	=37	=37
!LO:TX:a:t=1ma	!	!	!	!	!	!	!	!	!	!	!	!	!	!	!	!	!	!	!	!	!	!	!
*>B1	*	*	*	*	*	*	*	*	*	*	*	*	*	*	*	*	*	*	*	*	*	*	*
*	*	*	*	*	*	*	*	*	*	*^	*	*	*	*	*	*	*	*	*	*	*	*	*
!	!LO:DY:rj	!	!LO:DY:rj	!	!	!	!LO:DY:rj	!	!	!	!	!	!	!	!	!	!	!LO:DY:rj	!	!LO:DY:rj	!	!	!	!
16.BB/LL	f	16.f#\LL 16.B\	f	16.dd#X/LL 16.f#/ 16.B/	.	16.bb\LL 16.b\	f	16.BB/LL	.	8G/L	8C\	.	16.b/LL 16.d#X/|	.	16.B\LL	f	16.b/LL 16.B/	f	16.ff#\LL 16.dd#X\	f	16.bb\LL	f	4.r	.
!	!	!	!	!	!	!	!	!	!	!	!	!	!	!	!LO:TX:t=P:problem=mixed beam	!	!	!	!	!	!	!	!	!
32BB/JJk	.	32f#\JJk 32B\	.	32dd#/JJk 32f#/	.	32b\JJk	.	32BB/JJk	.	.	.	.	32b/JJk 32d#/|	.	32BB/JJk	.	32b/JJk 32B/	.	32ff#\JJk 32dd#\	.	32b\JJk	.	.	.
*	*	*	*	*	*	*	*	*	*	*tremolo	*	*	*	*	*	*	*	*	*	*	*	*	*	*
8BB/L	.	8f#\L 8B\	.	8dd#/ 8f#/	.	8bb\L 8b\	.	8BB/L	.	32G/LL	8r	.	8b/L 8d#'/	.	8BB/L	.	8b/L 8B/	.	8ff#\L 8dd#\	.	8bb\L	.	.	.
.	.	.	.	.	.	.	.	.	.	32G/	.	.	.	.	.	.	.	.	.	.	.	.	.	.
.	.	.	.	.	.	.	.	.	.	32G/	.	.	.	.	.	.	.	.	.	.	.	.	.	.
.	.	.	.	.	.	.	.	.	.	32G/JJ	.	.	.	.	.	.	.	.	.	.	.	.	.	.
*	*	*	*	*	*	*	*	*	*	*Xtremolo	*	*	*	*	*	*	*	*	*	*	*	*	*	*
8D#X/J	.	8d#X\J	.	8ff#\ 8b\	.	8aa\J 8b\	.	8D#X/J	.	8G/J	8C\	.	8a/J 8f#'/	.	8D#X/J	.	8b/J 8B/	.	8ff#\J 8b\	.	8aa\J	.	.	.
=38	=38	=38	=38	=38	=38	=38	=38	=38	=38	=38	=38	=38	=38	=38	=38	=38	=38	=38	=38	=38	=38	=38	=38	=38
.	.	.	.	(8qff#/	.	(8qaa/	.	.	.	.	.	.	(8qa/	.	.	.	.	.	(8qff#/ 8qa/	.	(8qaa/	.	.	.
*	*	*	*	*	*	*	*	*	*	*tremolo	*	*	*	*	*	*	*	*	*	*	*	*	*	*
16E\	.	16e\	.	16.ee\LL)	.	16.gg\LL)	.	16E\	.	32G/LLL	8C\L	.	16.g/LL 16.e/)	.	16E\	.	16b/ 16B/	.	16.ee/LL 16.g/)	.	16.gg\LL)	.	8r	.
.	.	.	.	.	.	.	.	.	.	32G/	.	.	.	.	.	.	.	.	.	.	.	.	.	.
16r	.	16r	.	.	.	.	.	16r	.	32G/	.	.	.	.	16r	.	16r	.	.	.	.	.	.	.
.	.	.	.	32dd#X\JJk	.	32ff#'\JJk	.	.	.	32G/J	.	.	32f#/JJk 32d#X/|	.	.	.	.	.	32dd#X/JJk 32f#/|	.	32ff#\JJk|	.	.	.
*	*	*	*	*	*	*	*	*	*	*Xtremolo	*	*	*	*	*	*	*	*	*	*	*	*	*	*
16E\	.	16e\	.	16ee\	.	16gg'\	.	16E\	.	16G/JJ	16C\Jk	.	16g/ 16e/|	.	16E\	.	16b/ 16B/	.	16ee/ 16g/|	.	16ee\|	.	8r	.
16r	.	16r	.	16r	.	16r	.	16r	.	16r	16r	.	16r	.	16r	.	16r	.	16r	.	16r	.	.	.
8Dn\	.	8f#\ 8d\	.	8ff#\ 8a\	.	8ddd\ 8dd\	sf	8D\	.	8G/	8C\	.	8dd/ 8f#/	.	8D\	.	8a/ 8d/	sf	8ff#\ 8a\	sf	8ff#\	sf	8ddd\	.
!!LO:PB:g=original
=39:|!	=39:|!	=39:|!	=39:|!	=39:|!	=39:|!	=39:|!	=39:|!	=39:|!	=39:|!	=39:|!	=39:|!	=39:|!	=39:|!	=39:|!	=39:|!	=39:|!	=39:|!	=39:|!	=39:|!	=39:|!	=39:|!	=39:|!	=39:|!	=39:|!
!LO:TX:a:t=2	!	!	!	!	!	!	!	!	!	!	!	!	!	!	!	!	!	!	!	!	!	!	!	!
*>B2	*	*	*	*	*	*	*	*	*	*	*	*	*	*	*	*	*	*	*	*	*	*	*	*
*	*	*	*	*	*	*	*	*	*	*	*	*	*	*	*	*	*^	*	*	*	*	*	*	*
!	!	!	!	!	!	!LO:TUP:a	!	!	!	!	!	!	!	!	!	!	!	!	!	!	!	!	!	!	!
8C/	.	8r	.	8r	.	24ee\LL|	.	8C/	.	8r	4C\	.	24e/LL|	.	8C/	.	8a/ 8A/	4ryy	.	8ee\ 8cc\	.	24ee\LL|	.	(24ee\LL|	.
.	.	.	.	.	.	(24gg#X\	.	.	.	.	.	.	(24g#X/	.	.	.	.	.	.	.	.	(24gg#X\	.	(24gg#X\	.
.	.	.	.	.	.	(24aa\JJ)	.	.	.	.	.	.	24a/JJ	.	.	.	.	.	.	.	.	24aa\JJ	.	(24aa\JJ)	.
*	*	*	*	*	*	*	*	*	*	*tremolo	*	*	*	*	*	*	*	*	*	*	*	*	*	*	*
8r	.	8e\L 8c\	.	8a/L 8c/	.	16ccc\)	.	8r	.	32G/LLL	.	.	16cc/)	.	8r	.	8r	.	.	8r	.	16ccc\)	.	16ccc\)	.
.	.	.	.	.	.	.	.	.	.	32G/	.	.	.	.	.	.	.	.	.	.	.	.	.	.	.
.	.	.	.	.	.	16r	.	.	.	32G/	.	.	16r	.	.	.	.	.	.	.	.	16r	.	16r	.
.	.	.	.	.	.	.	.	.	.	32G/JJ	.	.	.	.	.	.	.	.	.	.	.	.	.	.	.
8C^/	.	8e-X\J 8c^<\	.	8a/J 8c/	.	8eee-X^<\	.	8C/	.	8G/J	8r	.	8ee-X/ 8e-X/	.	8C/	.	8a/	8a\	.	8ee-X\ 8cc\	.	8aa^\	.	8eee-X\	.
*	*	*	*	*	*	*	*	*	*	*	*	*	*	*	*	*	*v	*v	*	*	*	*	*	*	*
=40	=40	=40	=40	=40	=40	=40	=40	=40	=40	=40	=40	=40	=40	=40	=40	=40	=40	=40	=40	=40	=40	=40	=40	=40
*	*	*	*	*	*	*	*	*	*	*	*	*	*^	*	*	*	*	*	*^	*	*	*	*	*
8D/	.	8d\L	.	8a/L 8c/	.	(32ddd\LLL	.	8D\L	.	32G/LLL	8C\L	.	8dd/ 8f#/	8ryy	.	8D\	.	8a\ 8d\	.	(32dd/LLL	8cc\	.	8aa\	.	(32ddd\LLL	.
.	.	.	.	.	.	32ccc\	.	.	.	32G/	.	.	.	.	.	.	.	.	.	32cc/	.	.	.	.	32ccc\	.
.	.	.	.	.	.	32aa\	.	.	.	32G/	.	.	.	.	.	.	.	.	.	32a/	.	.	.	.	32aa\	.
.	.	.	.	.	.	32ff#\JJJ)	.	.	.	32G/JJ	.	.	.	.	.	.	.	.	.	32f#/JJJ	.	.	.	.	32ff#\JJJ)	.
*	*	*	*	*	*	*	*	*	*	*Xtrmeolo	*	*	*	*	*	*	*	*	*	*	*	*	*	*	*	*
8GG/	.	8d\J 8G\	.	8g/J 8B/	.	8gg\	.	8G\J	.	8G/J	8C\J	.	8g/	8g\	.	8G\	.	8g/ 8B/	.	8g/)	8b\	.	8gg\	.	8gg\)	.
!	!	!	!	!	!	!LO:TX:a:i:t=fine	!	!	!	!	!	!	!	!	!	!	!	!	!	!	!	!	!	!	!	!
8r	.	8r	.	8r	.	8r;	.	8r	.	8r	8ryy	.	8r	8ryy	.	8r	.	8r	.	8r	8r	.	8r	.	8r	.
*	*	*	*	*	*	*	*	*	*	*v	*v	*	*	*	*	*	*	*	*	*	*	*	*	*	*	*
*	*	*	*	*	*	*	*	*	*	*	*	*	*	*	*	*	*	*	*v	*v	*	*	*	*	*
*	*	*	*	*	*	*	*	*	*	*	*	*v	*v	*	*	*	*	*	*	*	*	*	*	*
!!LO:PB:g=original
=41||	=41||	=41||	=41||	=41||	=41||	=41||	=41||	=41||	=41||	=41||	=41||	=41||	=41||	=41||	=41||	=41||	=41||	=41||	=41||	=41||	=41||	=41||	=41;||
*>C	*	*	*	*	*	*	*	*	*	*	*	*	*	*	*	*	*	*	*	*	*	*	*
*k[]	*	*k[]	*	*k[]	*	*k[]	*	*k[]	*	*k[]	*	*k[]	*	*k[]	*	*k[f#]	*	*k[]	*	*k[]	*	*k[]	*
*M3/8	*	*M3/8	*	*M3/8	*	*M3/8	*	*M3/8	*	*M3/8	*	*M3/8	*	*M3/8	*	*M3/8	*	*M3/8	*	*M3/8	*	*M3/8	*
!	!	!	!	!	!	!	!	!	!	!	!	!	!	!	!	!	!	!	!	!	!	!LO:TX:a:i:t=A	!
!	!	!	!	!	!	!	!	!	!	!	!	!	!	!	!	!	!	!	!	!	!	!LO:TX:a:i:t=Trio.	!
4.r	.	4.r	.	4.r	.	4.r	.	16.C/LL	.	4.r	.	16.ee/LL 16.g/|	.	16.c\LL	.	16.G/LL	.	4.r	.	4.r	.	4.r	.
.	.	.	.	.	.	.	.	32BB/JJk	.	.	.	32dd#X/JJk 32a/|	.	32B\JJk	.	32A/JJk	.	.	.	.	.	.	.
.	.	.	.	.	.	.	.	8C/L	.	.	.	8ee/L 8g/|	.	8c\L	.	8G/L	.	.	.	.	.	.	.
.	.	.	.	.	.	.	.	8E/J	.	.	.	8cc/J 8g/|	.	8e\J	.	8G/J	.	.	.	.	.	.	.
=42	=42	=42	=42	=42	=42	=42	=42	=42	=42	=42	=42	=42	=42	=42	=42	=42	=42	=42	=42	=42	=42	=42	=42
4.r	.	4.r	.	4.r	.	4.r	.	16.F\LL	.	4.r	.	16.a/LL	.	16.f\LL	.	16.A/LL	.	4.r	.	4.r	.	4.r	.
.	.	.	.	.	.	.	.	32E\JJk	.	.	.	32cc#X/JJk 32g/	.	32e\JJk	.	32A/JJk	.	.	.	.	.	.	.
.	.	.	.	.	.	.	.	8D\L	.	.	.	8dd/L 8f/	.	8d\L	.	8A/L	.	.	.	.	.	.	.
.	.	.	.	.	.	.	.	8F#X\J	.	.	.	8ccn/J 8a/	.	8f#X\J	.	8A/J	.	.	.	.	.	.	.
=43	=43	=43	=43	=43	=43	=43	=43	=43	=43	=43	=43	=43	=43	=43	=43	=43	=43	=43	=43	=43	=43	=43	=43
!	!	!	!	!	!	!	!	!LO:TUP:a:problem=klamra łukowa	!	!	!	!	!	!	!	!	!	!	!	!	!	!	!
8r	.	8r	.	8r	.	8r	.	16G\LL	.	4.r	.	16b/LL 16g/	.	16g\LL	.	16.G/LL	.	16.r	.	4.r	.	4.r	.
.	.	.	.	.	.	.	.	32r	.	.	.	32r	.	32r	.	.	.	.	.	.	.	.	.
!	!	!	!	!	!	!	!	!LO:TX:t=P:problem=mixed Beam	!	!	!	!	!	!	!	!	!	!	!	!	!	!	!
.	.	.	.	.	.	.	.	32GG/JJk	.	.	.	32a/JJk 32f/	.	32G\JJk	.	32B/JJk 32G/	.	32aa\ 32ff\|	.	.	.	.	.
8r	.	8r	.	8r	.	8r	.	8AA/L	.	.	.	8g/L 8e/	.	8A\L	.	8c/L 8A/	.	8gg\L 8ee'\	.	.	.	.	.
32r	.	32r	.	32r	.	32r	.	8BB/J	.	.	.	8f/J 8d/	.	8B\J	.	8d/J 8B/	.	8ff\J 8dd'\	.	.	.	.	.
!	!LO:DY:rj	!	!	!	!LO:DY:rj	!	!LO:DY:rj	!	!	!	!	!	!	!	!	!	!	!	!	!	!	!	!
(32GG/LLL	f	(32G/LLL	.	(32G/LLL	f	(32G/LLL	f	.	.	.	.	.	.	.	.	.	.	.	.	.	.	.	.
32AA/	.	32A/	.	32A/	.	32A/	.	.	.	.	.	.	.	.	.	.	.	.	.	.	.	.	.
32BB/JJJ)	.	32B/JJJ)	.	32B/JJJ)	.	32B/JJJ)	.	.	.	.	.	.	.	.	.	.	.	.	.	.	.	.	.
=44	=44	=44	=44	=44	=44	=44	=44	=44	=44	=44	=44	=44	=44	=44	=44	=44	=44	=44	=44	=44	=44	=44	=44
*	*	*	*	*	*	*	*	*	*	*^	*	*	*	*	*	*	*	*	*	*	*	*	*
!	!	!	!	!	!	!	!	!	!LO:DY:rj	!LO:N:vis=32	!	!LO:DY:rj	!	!	!	!LO:DY:rj	!	!LO:DY:rj	!	!LO:DY:rj	!	!	!	!
16.C/LL	.	16.c/LL	.	16.c/LL	.	16.c/LL	.	16.C/LL	f	64G/LLLL	8r	f	16.e/LL 16.c/	.	16.c\LL	f	16.c/LL	f	16.ee\LL 16.cc\	f	8r	.	8r	.
!	!	!	!	!	!	!	!	!	!	!LO:N:vis=32	!	!	!	!	!	!	!	!	!	!	!	!	!	!
.	.	.	.	.	.	.	.	.	.	64G/	.	.	.	.	.	.	.	.	.	.	.	.	.	.
!	!	!	!	!	!	!	!	!	!	!LO:N:vis=32	!	!	!	!	!	!	!	!	!	!	!	!	!	!
.	.	.	.	.	.	.	.	.	.	64G/	.	.	.	.	.	.	.	.	.	.	.	.	.	.
!	!	!	!	!	!	!	!	!	!	!LO:N:vis=32	!	!	!	!	!	!	!	!	!	!	!	!	!	!
.	.	.	.	.	.	.	.	.	.	64G/JJ	.	.	.	.	.	.	.	.	.	.	.	.	.	.
.	.	.	.	.	.	.	.	.	.	16G/JJ	.	.	.	.	.	.	.	.	.	.	.	.	.	.
32GG/JJk	.	32G/JJk	.	32B/JJk	.	32f/JJk	.	32GG/JJk	.	.	.	.	32d/JJk 32G/	.	32B\JJk	.	32B/JJk	.	32dd\JJk 32g\	.	.	.	.	.
!	!	!	!	!	!	!	!	!	!	!	!	!	!	!	!	!	!	!	!LO:SIC:o:v:t=nadprogramowa pauza 8	!	!	!	!	!
8C/	.	8c/	.	8c/	.	8e/	.	8C/	.	8G/	8C\	.	16.e/ 16.c/	.	8c\	.	8c/	.	16cc/ 16e/	.	16.r	.	16.r	.
!	!	!	!	!	!	!	!	!	!	!	!	!	!	!	!	!	!	!	!LO:N:vis=8	!	!	!	!	!
.	.	.	.	.	.	.	.	.	.	.	.	.	.	.	.	.	.	.	32r	.	.	.	.	.
.	.	.	.	.	.	.	.	.	.	.	.	.	32g/KLL 32e/	.	.	.	.	.	32g/KLL 32e/	.	32ee\KLL|	.	32gg\KLL|	.
8r	.	8r	.	8r	.	8r	.	8r	.	8r	8r	.	16.cc/ 16.e/	.	8r	.	8r	.	16.cc/ 16.e/	.	16.ee\|	.	16.ccc\|	.
.	.	.	.	.	.	.	.	.	.	.	.	.	32dd/JJk 32g/	.	.	.	.	.	32dd/JJk 32g/	.	32gg\JJk|	.	32ddd\JJk|	.
*	*	*	*	*	*	*	*	*	*	*v	*v	*	*	*	*	*	*	*	*	*	*	*	*	*
!!LO:PB:g=original
=45	=45	=45	=45	=45	=45	=45	=45	=45	=45	=45	=45	=45	=45	=45	=45	=45	=45	=45	=45	=45	=45	=45	=45
4.r	.	4.r	.	4.r	.	4.r	.	16.C/LL	.	4.r	.	16.ee\LL 16.cc\	.	16.c\LL	.	16.g\LL	.	16.ee\LL 16.cc\	.	16.ccc\LL	.	16.eee\LL	.
.	.	.	.	.	.	.	.	32BB/JJk	.	.	.	32dd#X\JJk 32a\	.	32B\JJk	.	32a\JJk	.	32dd#X\JJk 32b\	.	32aa\JJk	.	32ddd#X\JJk	.
.	.	.	.	.	.	.	.	8C\L	.	.	.	8ee\L 8g\	.	8c\L	.	8g\L	.	8ee\L 8g\	.	8gg\L	.	8eee\L	.
.	.	.	.	.	.	.	.	8E\J	.	.	.	8cc\J 8g\	.	8e\J	.	8g\J	.	8cc\J 8g\	.	8gg\J	.	8ccc\J	.
=46	=46	=46	=46	=46	=46	=46	=46	=46	=46	=46	=46	=46	=46	=46	=46	=46	=46	=46	=46	=46	=46	=46	=46
*	*	*	*	*	*	*	*	*	*	*	*	*	*	*	*	*	*	*^	*	*	*	*	*
4.r	.	4.r	.	4.r	.	4.r	.	16.F\LL	.	4.r	.	16.a/LL	.	16.f\LL	.	16.a\LL	.	16.a/LL	16.a\LL	.	16.aa\LL	.	16.aa\LL	.
.	.	.	.	.	.	.	.	32E\JJk	.	.	.	32cc#X/JJk 32g/	.	32e\JJk	.	32a\JJk	.	32cc#X/JJk	32g\JJk	.	32gg\JJk	.	32ccc#X\JJk	.
.	.	.	.	.	.	.	.	8D\L	.	.	.	8dd/L 8f/	.	8d\L	.	8a\L	.	8dd/L 8f/	4ryy	.	8ff\L	.	8ddd\L	.
.	.	.	.	.	f	.	f	8F#X\J	.	.	.	8ccn/J 8a/	.	8f#X\J	.	8a\J	.	8ccn/J 8a/	.	.	8aa\J	.	8cccn\J	f
*	*	*	*	*	*	*	*	*	*	*	*	*	*	*	*	*	*	*v	*v	*	*	*	*	*
=47	=47	=47	=47	=47	=47	=47	=47	=47	=47	=47	=47	=47	=47	=47	=47	=47	=47	=47	=47	=47	=47	=47	=47
*	*	*	*	*	*	*	*	*	*	*^	*	*	*	*	*	*	*	*	*	*	*	*	*
!	!LO:DY:rj	!	!	!	!	!	!	!	!LO:DY:rj	!	!	!LO:DY:rj	!	!	!	!	!	!LO:DY:rj	!	!LO:DY:rj	!	!	!	!
16.G\LL	f	16.g\LL	.	16.gg\LL 16.g\	.	16.bb\LL 16.b\	.	16.G\LL	f	8G/	8C\L	f	16.b/LL 16.g/	.	16.g\LL	.	16.B/LL 16.G/	f	16.b\LL 16.g\	f	16.gg\LL	.	16.bb\LL	.
32F#X\K	.	32f#X\K	.	32aa\K 32a\	.	32ccc\K 32cc\	.	32F#X\JJk	.	.	.	.	32cc/JJk 32a/	.	32f#X\K	.	32c/K 32A/	.	32cc\K 32a\	.	32aa\K	.	32ccc\K	.
16.Fn\	.	16.fn\	.	16.bb\ 16.b\	.	16.ddd\ 16.dd\	.	16.Fn\LL	.	4GTT/	8C\	.	16.dd\LL 16.b\	.	16.fn\	.	16.d/ 16.B/	.	16.dd\ 16.b\	.	16.bb\	.	16.ddd\	.
32E\K	.	32e\K	.	32ccc\K 32cc\	.	32eee\K 32ee\	.	32E\K	.	.	.	.	32ee\JJk 32cc\	.	32e\K	.	32e/K 32c/	.	32ee\K 32cc\	.	32ccc\K	.	32eee\K	.
16.D\	.	16.d\	.	16.ddd\ 16.dd\	.	16.fff\ 16.ff\	.	16.D\	.	.	8C\J	.	16.ff\LL 16.dd\	.	16.d\	.	16.fX/ 16.d/	.	16.ff\ 16.dd\	.	16.ddd\	.	16.fff\	.
32GG\JJk	.	32g\JJk	.	32bb\JJk 32b\	.	32ggg\JJk 32gg\	.	32G\JJk	.	.	.	.	32gg\JJk 32b\	.	32G\JJk	.	32g/JJk 32B/	.	32gg\JJk 32b\	.	32bb\JJk	.	32ggg\JJk	.
=48	=48	=48	=48	=48	=48	=48	=48	=48	=48	=48	=48	=48	=48	=48	=48	=48	=48	=48	=48	=48	=48	=48	=48	=48
16C/	.	16e\ 16c\	.	32ddd\KLL 32dd\	.	(32ddd\KLL 32dd\	.	16C/	.	16G/	16C\	.	16ee\ 16cc\	.	16c\	.	16g/ 16G/	.	(32dd\KLL	.	(32ddd\KLL	.	(32ddd\KLL	.
.	.	.	.	16ccc\JJ 16cc\	.	16ccc\JJ 16cc\)	.	.	.	.	.	.	.	.	.	.	.	.	16cc\JJ)	.	16ccc\JJ)	.	16ccc\JJ)	.
16r	.	16r	.	.	.	.	.	16r	.	16r	16r	.	16r	.	16r	.	16r	.	.	.	.	.	.	.
.	.	.	.	32r	.	32r	.	.	.	.	.	.	.	.	.	.	.	.	32ryy	.	32r	.	32r	.
4C/	.	4e\ 4c\	.	8ccc\ 8ee\ 8g\	.	4ccc\ 4ee\ 4g\	.	4C/	.	4G/	4C\	.	4cc/ 4e/	.	4C/	.	4g/ 4G/	.	4gg\ 4ee\	.	4ccc\	.	4aa\	.
.	.	.	.	8r	.	.	.	.	.	.	.	.	.	.	.	.	.	.	.	.	.	.	.	.
=49:|!|:	=49:|!|:	=49:|!|:	=49:|!|:	=49:|!|:	=49:|!|:	=49:|!|:	=49:|!|:	=49:|!|:	=49:|!|:	=49:|!|:	=49:|!|:	=49:|!|:	=49:|!|:	=49:|!|:	=49:|!|:	=49:|!|:	=49:|!|:	=49:|!|:	=49:|!|:	=49:|!|:	=49:|!|:	=49:|!|:	=49:|!|:	=49:|!|:
*>D	*	*	*	*	*	*	*	*	*	*	*	*	*	*	*	*	*	*	*	*	*	*	*	*
*	*	*	*	*	*	*	*	*	*	*	*	*	*	*	*	*	*	*	*^	*	*	*	*	*
*	*	*	*	*	*	*	*	*	*	*	*	*	*	*	*	*	*	*	*Xtuplet	*	*	*	*	*	*
!	!	!	!	!	!	!	!	!	!	!	!	!	!	!	!	!	!	!	!	!	!	!	!	!LO:TX:a:i:t=B	!
!	!	!	!	!	!	!	!	!	!	!	!	!	!	!	!	!	!	!	!	!	!	!LO:TUP:a:problem=klamra łukowa	!	!LO:TUP:a:problem=klamra łukowa	!
4.r	.	4.r	.	4.r	.	4.r	.	4.r	.	4.r	4.r	.	4.r	.	16.F#X\LL	.	16.a/LL 16.d/	.	24dd/LL	16.a\LL	.	24dd/LL	.	24ddd\LL	.
.	.	.	.	.	.	.	.	.	.	.	.	.	.	.	.	.	.	.	24cc#X/	.	.	24cc#X/	.	24ccc#X\	.
.	.	.	.	.	.	.	.	.	.	.	.	.	.	.	.	.	.	.	24ee/JJ	.	.	24ee/JJ	.	24eee\JJ	.
.	.	.	.	.	.	.	.	.	.	.	.	.	.	.	32F#\JJk	.	32a/JJk 32d/	.	.	32a\JJk	.	.	.	.	.
.	.	.	.	.	.	.	.	.	.	.	.	.	.	.	8F#\L	.	8a/L 8d/	.	8dd/L	8a\L	.	8dd/L	.	8ddd\L	.
.	.	.	.	.	.	.	.	.	.	.	.	.	.	.	8F#\J	.	8a/J 8d/	.	8ccn/J	8a\J	.	8ccn/J	.	8cccn'\J	.
!!LO:PB:g=original
=50	=50	=50	=50	=50	=50	=50	=50	=50	=50	=50	=50	=50	=50	=50	=50	=50	=50	=50	=50	=50	=50	=50	=50	=50	=50
4.r	.	4.r	.	4.r	.	4.r	.	4.r	.	4.r	4.r	.	4.r	.	16.G\LL	.	16.b\LL 16.g\	.	16.b/LL 16.g/	8ryy	.	16.gg\LL	.	16.bb\LL	.
.	.	.	.	.	.	.	.	.	.	.	.	.	.	.	32D\JJk	.	32a\JJk 32d\	.	32cc/JJk 32a/	.	.	32aa\JJk	.	32ccc\JJk	.
.	.	.	.	.	f	.	f	.	.	.	.	.	.	.	4GG/	.	4g/ 4B/	.	4dd/	4b\	.	4bb\	.	4ddd\	.
*	*	*	*	*	*	*	*	*	*	*	*	*	*	*	*	*	*	*	*v	*v	*	*	*	*	*
=51	=51	=51	=51	=51	=51	=51	=51	=51	=51	=51	=51	=51	=51	=51	=51	=51	=51	=51	=51	=51	=51	=51	=51	=51
!	!	!	!	!	!	!	!	!	!	!	!	!	!	!	!	!	!	!	!LO:SIC:s:v:t=16.ff#	!	!	!	!	!
!	!LO:DY:rj	!	!LO:DY:rj	!	!	!	!	!	!	!	!	!LO:DY:rj	!	!LO:DY:rj	!	!	!	!LO:DY:rj	!	!	!	!	!	!
16.BB/LL	f	16.f\LL 16.B\	f	16.dd#X/LL 16.f/	.	16.bb\LL 16.b\	.	16.BB/LL	.	16.G/LL	8C\	f	16.b/LL 16.d#X/	f	16.BB/LL	.	16.b/LL 16.B/	f	16.ff\LL 16.dd#X\	.	16.bb\LL	f	4.r	.
!	!	!	!	!	!	!	!	!	!	!	!	!	!	!	!	!	!	!	!LO:SIC:s:v:t=32ff#	!	!	!	!	!
32BB/JJk	.	32f\JJk 32B\	.	32dd#/JJk 32f/	.	32bb\JJk 32b\	.	32BB/JJk	.	32G/JJk	.	.	32b/JJk 32d#/	.	32BB/JJk	.	32b/JJk 32B/	.	32ff\JJk 32dd#\	.	32bb\JJk	.	.	.
!	!	!	!	!	!	!	!	!	!	!	!	!	!	!	!	!	!	!	!LO:SIC:s:v:t=8ff#	!	!	!	!	!
8BB/L	.	8f\L 8B\	.	8dd#/L 8f/	.	8bb\L 8b\	.	8BB/L	.	8G/L	8r	.	8b/L 8d#/	.	8BB/L	.	8b/L 8B/	.	8ff\L 8dd#\	.	8bb\L	.	.	.
*	*	*	*	*	*	*	*	*	*	*tremolo	*	*	*	*	*	*	*	*	*	*	*	*	*	*
!	!	!	!	!	!	!	!	!	!	!	!	!	!	!	!	!	!	!	!LO:SIC:s:v:t=8ff#	!	!	!	!	!
8D#X/J	.	8f\J 8B\	.	8ff/J 8b/	.	8aa\J 8b\	.	8D#X/J	.	32G/LL	8C\	.	8a/J 8f/	.	8D#X/J	.	8b/J 8B/	.	8aa\J 8ff\	.	8aa\J	.	.	.
.	.	.	.	.	.	.	.	.	.	32G/	.	.	.	.	.	.	.	.	.	.	.	.	.	.
.	.	.	.	.	.	.	.	.	.	32G/	.	.	.	.	.	.	.	.	.	.	.	.	.	.
.	.	.	.	.	.	.	.	.	.	32G/JJJ	.	.	.	.	.	.	.	.	.	.	.	.	.	.
*	*	*	*	*	*	*	*	*	*	*Xtremolo	*	*	*	*	*	*	*	*	*	*	*	*	*	*
=52	=52	=52	=52	=52	=52	=52	=52	=52	=52	=52	=52	=52	=52	=52	=52	=52	=52	=52	=52	=52	=52	=52	=52	=52
.	.	.	.	.	.	.	.	.	.	.	.	.	.	.	.	.	.	.	8qaa/ 8qff/	.	(8qaa/	.	.	.
16E/LL	.	16g\LL 16B\	.	16ee\LL	.	16gg\LL 16b\	.	16.E/LL	.	16G/LL	8C\	.	16g/LL 16e/	.	16.E/LL	.	16.b/LL 16.B/	.	16.gg\LL 16.ee\	.	16.gg\LL)	.	4.r	.
32r	.	32r	.	32r	.	32r	.	.	.	32G/L	.	.	32r	.	.	.	.	.	.	.	.	.	.	.
!	!	!	!	!	!	!	!	!	!	!	!	!	!	!	!	!	!	!	!LO:SIC:s:v:t=32ff#	!	!	!	!	!
32BB/JJk	.	32f\JJk 32B\	.	32dd#X\JJk	.	32ff\JJk	.	32BB/JJk	.	32G/JJJ	.	.	32dd#X/JJk 32f/	.	32BB/JJk	.	32b/JJk 32B/	.	32ff\JJk 32dd#X\	.	32ff\JJk|	.	.	.
8E\	.	8f\ 8B\	.	8ee\	.	8ee\	.	8E\	.	8G/	8C\	.	8ee/ 8g/	.	8E\	.	8b/ 8B/	.	8ee\	.	8ee\|	.	.	.
8r	.	8r	.	8r	.	8r	.	8r	.	8r	8ryy	.	8r	.	8r	.	8r	.	8r	.	8r	.	.	.
*	*	*	*	*	*	*	*	*	*	*v	*v	*	*	*	*	*	*	*	*	*	*	*	*	*
=53	=53	=53	=53	=53	=53	=53	=53	=53	=53	=53	=53	=53	=53	=53	=53	=53	=53	=53	=53	=53	=53	=53	=53
*	*	*	*	*	*	*	*	*	*	*	*	*	*	*	*	*	*	*^	*	*	*	*	*
*	*	*	*	*	*	*	*	*	*	*	*	*	*	*clefC4	*	*	*	*tuplet	*	*	*	*	*	*
!	!	!	!	!	!	!	!	!	!	!	!	!	!	!	!	!	!	!LO:TUP:a:problem=klamra łukowa	!	!	!LO:TUP:a:problem=klamra łukowa	!	!LO:TUP:a:problem=klamra łukowa	!
4.r	.	4.r	.	4.r	.	4.r	.	4.r	.	4.r	.	4.r	.	16.g#X\LL	.	4.r	.	24ee/LL	16.b\LL	.	24ee\LL	.	24eee\LL	.
.	.	.	.	.	.	.	.	.	.	.	.	.	.	.	.	.	.	24dd#X/	.	.	24dd#X\	.	24ddd#X\	.
.	.	.	.	.	.	.	.	.	.	.	.	.	.	.	.	.	.	24ee/JJ	.	.	24ff\JJ	.	24fff\JJ	.
.	.	.	.	.	.	.	.	.	.	.	.	.	.	32g#\JJk	.	.	.	.	32b\JJk	.	.	.	.	.
.	.	.	.	.	.	.	.	.	.	.	.	.	.	8g#\L	.	.	.	8ee/L	8b\L	.	8ee\L	.	8eee\L	.
.	.	.	.	.	.	.	.	.	.	.	.	.	.	8g#\J	.	.	.	8ddn/J	8b\J	.	8bb\J 8ddn\	.	8dddn\J	.
=54	=54	=54	=54	=54	=54	=54	=54	=54	=54	=54	=54	=54	=54	=54	=54	=54	=54	=54	=54	=54	=54	=54	=54	=54
4.r	.	4.r	.	4.r	.	4.r	.	4.r	.	4.r	.	4.r	.	16.a\LL	.	4.r	.	16.cc/LL	16.a\LL	.	16.aa\LL 16.cc\	.	16.ccc\LL	.
.	.	.	.	.	.	.	.	.	.	.	.	.	.	32e\JJk	.	.	.	32dd/JJk	32b\JJk	.	32bb\JJk 32dd\	.	32ddd\JJk	.
.	.	.	.	.	.	.	.	.	.	.	.	.	.	8A\	.	.	.	8ee/	8cc\	.	8ccc\ 8ee\	.	8eee\	.
.	.	.	.	.	.	.	.	.	.	.	.	.	.	8r	.	.	.	8r	8ryy	.	8r	.	8r	.
*	*	*	*	*	*	*	*	*	*	*	*	*	*	*	*	*	*	*v	*v	*	*	*	*	*
!!LO:PB:g=original
=55	=55	=55	=55	=55	=55	=55	=55	=55	=55	=55	=55	=55	=55	=55	=55	=55	=55	=55	=55	=55	=55	=55	=55
*	*	*	*	*	*	*	*	*	*	*^	*	*	*	*	*	*	*	*	*	*	*	*	*
!	!	!	!LO:DY:rj	!	!	!	!LO:DY:rj	!	!	!	!	!	!	!LO:DY:rj	!	!	!	!	!	!LO:DY:rj	!	!	!	!
16.d\LL	.	16.d\LL	ff	16.ff#X\LL 16.f#X\	.	16.aa\LL 16.a\	ff	16.D/LL	.	8G/L	8C\	.	16.a/LL 16.f#X/	ff	16.a\LL	.	16a/ 16d/	.	16.a/LL 16.f#X/	ff	16.ff#X\LL	.	16.aa\LL	ff
.	.	.	.	.	.	.	.	.	.	.	.	.	.	.	.	.	16r	.	.	.	.	.	.	.
32c#X\K	.	32c#X\JJk	.	32gg\K 32g\	.	32bb\K 32b\	.	32C#X/K	.	.	.	.	32b/JJk 32g/	.	32g#X\K	.	.	.	32b/K 32g/	.	32gg\K	.	32bb\K	.
*	*	*	*	*	*	*	*	*	*	*tremolo	*	*	*	*	*	*	*	*	*	*	*	*	*	*
!	!	!	!	!	!	!	!	!LO:N:vis=16	!	!	!	!	!	!	!	!	!	!	!	!	!	!	!	!
16.cn\	.	16.cn\LL	.	16.aa\ 16.a\	.	16.ccc\ 16.cc\	.	16.Cn/	.	32GT/LL	8r	.	16.cc/LL 16.a/	.	16.gn\	.	8r	.	16.cc/ 16.a/	.	16.aa\	.	16.ccc\	.
.	.	.	.	.	.	.	.	.	.	32G/	.	.	.	.	.	.	.	.	.	.	.	.	.	.
.	.	.	.	.	.	.	.	.	.	32G/	.	.	.	.	.	.	.	.	.	.	.	.	.	.
32B\JJk	.	32B\JJk	.	32bb\JJk 32b\	.	32ddd\JJk 32dd\	.	32BB/JJk	.	32G/JJ	.	.	32dd/JJk 32b/	.	32f\JJk	.	.	.	32dd/K 32b/	.	32bb\K	.	32ddd\K	.
*	*	*	*	*	*	*	*	*	*	*Xtremolo	*	*	*	*	*	*	*	*	*	*	*	*	*	*
16A\LL	.	16A/LL	.	16ccc\LL 16cc\	.	16eee\LL 16ee\	.	16AA/LL	.	8G/J	8C\	.	16ee\LL 16cc\	.	16e\LL	.	16r	.	16.ee/ 16.cc/	.	16.ccc\	.	16.eee\	.
16D\JJ	.	16d/JJ	.	16aa\JJ 16a\	.	16fff#X\JJ 16ff#X\	.	16D/JJ	.	.	.	.	16ff#X\JJ 16a\	.	16A\JJ	.	16a/ 16d/	.	.	.	.	.	.	.
.	.	.	.	.	.	.	.	.	.	.	.	.	.	.	.	.	.	.	32ff#X/JJk 32a/	.	32aa\JJk	.	32fff#X\JJk	.
=56	=56	=56	=56	=56	=56	=56	=56	=56	=56	=56	=56	=56	=56	=56	=56	=56	=56	=56	=56	=56	=56	=56	=56	=56
*	*	*	*	*	*	*	*	*	*	*	*	*	*^	*	*	*	*	*	*	*	*	*	*	*
16G\	.	16g/ 16G/	.	16bb\ 16b\	.	16ggg\ 16gg\	.	16G\	.	16G/	8C\	.	16gg\ 16b\	8ryy	.	16D/	.	16g/ 16B/	.	16gg\ 16b\	.	16bb\	.	16ggg\	.
16r	.	16r	.	16r	.	16r	.	16r	.	16r	.	.	16r	.	.	16r	.	16r	.	16r	.	16r	.	16r	.
4G\	.	4g/ 4G^/	.	4gg\ 4b\ 4d\	.	4gg\ 4b\ 4d\	.	4G\	.	4G/	4C\	.	4g/	4g\	.	4d\	.	4g/ 4B/	.	4gg\ 4b\	.	4b\	.	4gg^<\	.
*	*	*	*	*	*	*	*	*	*	*v	*v	*	*	*	*	*	*	*	*	*	*	*	*	*	*
*	*	*	*	*	*	*	*	*	*	*	*	*v	*v	*	*	*	*	*	*	*	*	*	*	*
=57	=57	=57	=57	=57	=57	=57	=57	=57	=57	=57	=57	=57	=57	=57	=57	=57	=57	=57	=57	=57	=57	=57	=57
!	!	!	!	!	!	!	!	!	!	!	!	!	!	!LO:CL:ed	!	!	!	!	!	!	!	!	!
*	*	*	*	*	*	*	*	*	*	*	*	*	*	*clefF4	*	*	*	*	*	*	*	*	*
!LO:TX:t=P:problem=powtórka taktów 41-48	!	!LO:TX:t=P:problem=powtórka taktów 41-48	!	!LO:TX:t=P:problem=powtórka taktów 41-48	!	!LO:TX:t=P:problem=powtórka taktów 41-48	!	!LO:TX:t=P:problem=powtórka taktów 41-48	!	!LO:TX:t=P:problem=powtórka taktów 41-48	!	!	!	!LO:TX:t=P:problem=powtórka taktów 41-48	!	!LO:TX:t=P:problem=powtórka taktów 41-48	!	!LO:TX:t=P:problem=powtórka taktów 41-48	!	!LO:TX:t=P:problem=powtórka taktów 41-48	!	!LO:TX:t=P:problem=powtórka taktów 41-48	!
4.ryy	.	4.ryy	.	4.ryy	.	4.ryy	.	16.C/LLyy	.	4.ryy	.	16.ee/LL 16.g/	.	16.c\LLyy	.	16.G/LLyy	.	4.ryy	.	4.ryy	.	4.ryy	.
.	.	.	.	.	.	.	.	32BB/JJkyy	.	.	.	32dd#X/JJk 32a/	.	32B\JJkyy	.	32A/JJkyy	.	.	.	.	.	.	.
.	.	.	.	.	.	.	.	8C/Lyy	.	.	.	8ee/L 8g/	.	8c\Lyy	.	8G/Lyyyy	.	.	.	.	.	.	.
.	.	.	.	.	.	.	.	8E/Jyy	.	.	.	8cc/J 8g/	.	8e\Jyy	.	8G/Jyy	.	.	.	.	.	.	.
=58	=58	=58	=58	=58	=58	=58	=58	=58	=58	=58	=58	=58	=58	=58	=58	=58	=58	=58	=58	=58	=58	=58	=58
4.ryy	.	4.ryy	.	4.ryy	.	4.ryy	.	16.F\LLyy	.	4.ryy	.	16.a/LL	.	16.f\LLyy	.	16.A/LLyy	.	4.ryy	.	4.ryy	.	4.ryy	.
.	.	.	.	.	.	.	.	32E\JJkyy	.	.	.	32cc#X/JJk 32g/	.	32e\JJkyy	.	32A/JJkyy	.	.	.	.	.	.	.
.	.	.	.	.	.	.	.	8D\Lyyyy	.	.	.	8dd/L 8f/	.	8d\Lyy	.	8A/Lyy	.	.	.	.	.	.	.
.	.	.	.	.	.	.	.	8F#X\Jyy	.	.	.	8ccn/J 8a/	.	8f#X\Jyy	.	8A/Jyy	.	.	.	.	.	.	.
=59	=59	=59	=59	=59	=59	=59	=59	=59	=59	=59	=59	=59	=59	=59	=59	=59	=59	=59	=59	=59	=59	=59	=59
!	!	!	!	!	!	!	!	!LO:TUP:a:problem=klamra łukowa	!	!	!	!	!	!	!	!	!	!	!	!	!	!	!
8ryy	.	8ryy	.	8ryy	.	8ryy	.	16G/LLyy	.	4.ryy	.	16b/LL 16g/	.	16g\LLyy	.	16.G/LLyy	.	16.ryy	.	4.ryy	.	4.ryy	.
.	.	.	.	.	.	.	.	32ryy	.	.	.	32r	.	32ryy	.	.	.	.	.	.	.	.	.
.	.	.	.	.	.	.	.	32GG/JJkyy	.	.	.	32a/JJk 32f/	.	32G\JJkyy	.	32Byy/JJk 32G/yy	.	32aayy\ 32ff\yy|	.	.	.	.	.
8ryy	.	8ryy	.	8ryy	.	8ryy	.	8AA/Lyy	.	.	.	8g/L 8e/	.	8A\Lyy	.	8cyy/L 8A/yy	.	8ggyyyy\L 8ee'\yy	.	.	.	.	.
32ryy	.	32ryy	.	32ryy	.	32ryy	.	8BB/Jyy	.	.	.	8f/J 8d/	.	8B\Jyy	.	8dyy/J 8B/yy	.	8fyyf\J 8dd'\yy	.	.	.	.	.
(yy32GG/LLLyy	fyy	(yy32G/LLLyy	.	(yy32G/LLLyy	fyy	(y32G/LLLyy	fyy	.	.	.	.	.	.	.	.	.	.	.	.	.	.	.	.
32AA/yy	.	32A/yy	.	32A/yy	.	32A/yy	.	.	.	.	.	.	.	.	.	.	.	.	.	.	.	.	.
32BB/JJJ)yy	.	32B/JJJ)yy	.	32B/JJJ)yy	.	32B/JJJ)yy	.	.	.	.	.	.	.	.	.	.	.	.	.	.	.	.	.
!!LO:PB:g=original
=60	=60	=60	=60	=60	=60	=60	=60	=60	=60	=60	=60	=60	=60	=60	=60	=60	=60	=60	=60	=60	=60	=60	=60
*	*	*	*	*	*	*	*	*	*	*^	*	*	*	*	*	*	*	*	*	*	*	*	*
!	!	!	!	!	!	!	!	!	!	!LO:N:vis=32	!	!	!	!	!	!	!	!	!	!	!	!	!	!
16.C/LLyy	.	16.c/LLyy	.	16.c/LLyy	.	16.c/LLyy	.	16.C/LLyy	fyy	64G/LLLLyy	8ryy	.	16.e/LL 16.c/	.	16.c\LLyy	fyy	16.c/LLyy	f	16.eeyy\LL 16.cc\yy	fyy	8ryy	.	8ryy	.
!	!	!	!	!	!	!	!	!	!	!LO:N:vis=32	!	!	!	!	!	!	!	!	!	!	!	!	!	!
.	.	.	.	.	.	.	.	.	.	64G/yyyyyy	.	.	.	.	.	.	.	.	.	.	.	.	.	.
!	!	!	!	!	!	!	!	!	!	!LO:N:vis=32	!	!	!	!	!	!	!	!	!	!	!	!	!	!
.	.	.	.	.	.	.	.	.	.	64G/yyyy	.	.	.	.	.	.	.	.	.	.	.	.	.	.
!	!	!	!	!	!	!	!	!	!	!LO:N:vis=32	!	!	!	!	!	!	!	!	!	!	!	!	!	!
.	.	.	.	.	.	.	.	.	.	64G/JJyy	.	.	.	.	.	.	.	.	.	.	.	.	.	.
.	.	.	.	.	.	.	.	.	.	16G/JJyy	.	.	.	.	.	.	.	.	.	.	.	.	.	.
32GG/JJkyy	.	32G/JJkyy	.	32B/JJkyy	.	32f/JJkyy	.	32GG/JJkyy	.	.	.	.	32d/JJk 32G/	.	32B\JJkyy	.	32B/JJkyy	.	32ddyy\JJk 32g\yy	.	.	.	.	.
!	!	!	!	!	!	!	!	!	!	!	!	!	!	!	!	!	!	!	!LO:TX:t=P:problem=nadprogramowa pauza 8	!	!	!	!	!
8C/yy	.	8c/yy	.	8c/yy	.	8e/yy	.	8C/yy	.	8G/yy	8C\yy	.	16.e/LL 16.c/	.	8c\yy	.	8c/yy	.	16.ccyy/ 16.e/yy	.	16.ryy	.	16.ryy	.
.	.	.	.	.	.	.	.	.	.	.	.	.	32g/K 32e/	.	.	.	.	.	32gyy/KLL 32e/yy	.	32ee\KLLyy|	.	32gg\KLLyy|	.
8ryy	.	8ryy	.	8ryy	.	8ryy	.	8ryy	.	8ryy	8ryy	.	16.cc/ 16.e/	.	8ryy	.	8r	.	16.ccyy/ 16.e/yy	.	16.ee\yy|	.	16.ccc\yyyy|	.
.	.	.	.	.	.	.	.	.	.	.	.	.	32dd/JJk 32g/	.	.	.	.	.	32ddyy/JJk 32g/yy	.	32gg\JJkyy|	.	32ddd\JJkyy|	.
*	*	*	*	*	*	*	*	*	*	*v	*v	*	*	*	*	*	*	*	*	*	*	*	*	*
=61	=61	=61	=61	=61	=61	=61	=61	=61	=61	=61	=61	=61	=61	=61	=61	=61	=61	=61	=61	=61	=61	=61	=61
4.ryy	.	4.ryy	.	4.ryy	.	4.ryy	.	16.C/LLyy	.	4.ryy	.	16.ee/LL 16.g/	.	16.c\LLyy	.	16.g\LLyy	.	16.eeyy\LL 16.cc\yy	.	16.ccc\LLyy	.	16.eee\LLyy	.
.	.	.	.	.	.	.	.	32BB/JJkyy	.	.	.	32dd#X/JJk 32a/	.	32B\JJkyy	.	32a\JJkyy	.	32dd#Xyy\JJk 32b\yy	.	32aa\JJkyy	.	32ddd#X\JJkyy	.
.	.	.	.	.	.	.	.	8C\Lyy	.	.	.	8ee/L 8g/	.	8c\Lyy	.	8g\Lyy	.	8eeyy\L 8g\yy	.	8gg\Lyy	.	8eee\Lyy	.
.	.	.	.	.	.	.	.	8E\Jyy	.	.	.	8cc/J 8g/	.	8e\Jyy	.	8g\Jyy	.	8ccyy\J 8g\yy	.	8gg\Jyy	.	8ccc\Jyy	.
=62	=62	=62	=62	=62	=62	=62	=62	=62	=62	=62	=62	=62	=62	=62	=62	=62	=62	=62	=62	=62	=62	=62	=62
*	*	*	*	*	*	*	*	*	*	*^	*	*	*	*	*	*	*	*^	*	*	*	*	*
4.ryy	.	4.ryy	.	4.ryy	.	4.ryy	.	16.F\LLyy	.	4.ryy	4.r	.	16.a/LL	.	16.f\LLyy	.	16.a\LLyyyy	.	16.a/LLyy	16.a\LLyy	.	16.aa\LLyy	.	16.aa\LLyy	.
.	.	.	.	.	.	.	.	32E\JJkyy	.	.	.	.	32cc#X/JJk 32g/	.	32e\JJkyy	.	32a\JJkyy	.	32cc#X/JJkyy	32g\JJkyy	.	32gg\JJkyy	.	32ccc#X\JJkyy	.
.	.	.	.	.	.	.	.	8D\Lyy	.	.	.	.	8dd/L 8f#X/	.	8d\Lyy	.	8a\Lyy	.	8ddyy/L 8f/yy	4ryy	.	8ff\Lyy	.	8ddd\Lyy	.
.	.	.	.	.	.	.	.	8F#X\Jyy	.	.	.	.	8ccn/J 8a/	.	8f#X\Jyy	.	8a\Jyy	.	8ccnyy/J 8a/yy	.	.	8aa\Jyy	.	8cccn\Jyy	fyy
*	*	*	*	*	*	*	*	*	*	*	*	*	*	*	*	*	*	*	*v	*v	*	*	*	*	*
=63	=63	=63	=63	=63	=63	=63	=63	=63	=63	=63	=63	=63	=63	=63	=63	=63	=63	=63	=63	=63	=63	=63	=63	=63
16.G\LLyy	fyy	16.g\LLyy	.	16.ggyy\LL 16.g\yy	fyy	16.bbyy\LL 16.b\yy	fyy	16.G\LLyyyy	fyy	8G/yy	8C\Lyy	fyy	16.b/LL 16.g/	.	16.g\LLyy	.	16.Byy/LL 16.G/yy	fyy	16.byy\LL 16.g\yy	fyy	16.gg\LLyy	.	16.bb\LLyy	.
32F#X\Kyy	.	32f#X\Kyy	.	32aayy\K 32a\yy	.	32cccyy\K 32cc\yy	.	32F#X\JJkyy	.	.	.	.	32cc/JJk 32a/	.	32f#X\Kyy	.	32cyy/K 32A/yy	.	32ccyy\K 32a\yy	.	32aa\Kyy	.	32ccc\Kyyyy	.
16.Fn\yy	.	16.fn\yy	.	16.bbyy\ 16.b\yy	.	16.dddyy\ 16.dd\yy	.	16.Fn\LLyy	.	4GTyy/yy	8C\yy	.	16.dd\LL 16.b\	.	16.fn\yy	.	16.dyy/ 16.B/yy	.	16.ddyy\ 16.b\yy	.	16.bb\yy	.	16.ddd\yy	.
32E\Kyy	.	32e\Kyy	.	32cccyy\K 32cc\yy	.	32eeeyy\K 32ee\yy	.	32E\Kyy	.	.	.	.	32ee\JJk 32cc\	.	32e\Kyy	.	32eyy/K 32c/yy	.	32eeyy\K 32cc\yy	.	32ccc\Kyy	.	32eee\Kyy	.
16.D\yy	.	16.d\yy	.	16.dddyy\ 16.dd\yy	.	16.fffyy\ 16.ff\yy	.	16.D\yy	.	.	8C\Jyy	.	16ff#X\LL 16dd\	.	16.d\yy	.	16.fXyy/ 16.d/yy	.	16.ffyy\ 16.dd\yy	.	16.ddd\yy	.	16.fff\yy	.
.	.	.	.	.	.	.	.	.	.	.	.	.	16gg\JJ 16b\	.	.	.	.	.	.	.	.	.	.	.
32GG\JJkyy	.	32g\JJkyy	.	32bbyy\JJk 32b\yy	.	32gggyy\JJk 32gg\yy	.	32G\JJkyy	.	.	.	.	.	.	32G\JJkyy	.	32gyy/JJk 32B/yy	.	32ggyy\JJk 32b\yy	.	32bb\JJkyy	.	32ggg\JJkyy	.
=64	=64	=64	=64	=64	=64	=64	=64	=64	=64	=64	=64	=64	=64	=64	=64	=64	=64	=64	=64	=64	=64	=64	=64	=64
16C/yy	.	16eyy\ 16c\yy	.	32dddyy\KLL 32dd\yy	.	(32dddyy\KLL yy32dd\yy	.	16C/yy	.	16G/yy	16C\yy	.	16ee\ 16cc\	.	16c\yy	.	16gyy/ 16G/yy	.	(yy32dd\KLLyy	.	(yy32ddd\KLLyy	.	(yy32ddd\KLLyy	.
.	.	.	.	16cccyy\JJ 16cc\yy	.	16cccyy\JJ 16cc\yy)	.	.	.	.	.	.	.	.	.	.	.	.	16cc\JJ)yy	.	16ccc\JJ)yy	.	16ccc\JJ)yy	.
16ryy	.	16ryy	.	.	.	.	.	16ryy	.	16ryy	16ryy	.	16r	.	16ryy	.	16ryy	.	.	.	.	.	.	.
.	.	.	.	32ryy	.	32ryy	.	.	.	.	.	.	.	.	.	.	.	.	32ryy	.	32ryy	.	32ryy	.
!	!	!	!	!	!	!	!	!	!	!	!	!	!LO:TX:b:t=Da capo \nmazur \nal fine \n[fermata] \ne poi \nla Coda	!	!	!	!	!	!	!	!	!	!	!
4C/yy	.	4eyy\ 4c\yy	.	8cccyy\ 8eeyy\ 8gyy\	.	4cccyy\ 4eeyy\ 4g\yy	.	4C/yy	.	4G/yy	4C\yy	.	4cc/ 4e/	.	4C/yy	.	4gyy/ 4G/yy	.	4ggyy\ 4ee\yy	.	4ccc\yy	.	4aa\yy	.
.	.	.	.	8ryy	.	.	.	.	.	.	.	.	.	.	.	.	.	.	.	.	.	.	.	.
*	*	*	*	*	*	*	*	*	*	*v	*v	*	*	*	*	*	*	*	*	*	*	*	*	*
!!LO:PB:g=original
=65:|!	=65:|!	=65:|!	=65:|!	=65:|!	=65:|!	=65:|!	=65:|!	=65:|!	=65:|!	=65:|!	=65:|!	=65:|!	=65:|!	=65:|!	=65:|!	=65:|!	=65:|!	=65:|!	=65:|!	=65:|!	=65:|!	=65:|!	=65:|!
*>E	*	*	*	*	*	*	*	*	*	*	*	*	*	*	*	*	*	*	*	*	*	*	*
*k[f#]	*	*k[f#]	*	*k[f#]	*	*k[f#]	*	*k[f#]	*	*k[]	*	*k[f#]	*	*k[f#]	*	*k[f#]	*	*k[f#]	*	*k[f#]	*	*k[f#]	*
*	*	*	*	*	*	*	*	*	*	*^	*	*	*	*	*	*^	*	*^	*	*	*	*	*
*	*	*	*	*	*	*	*	*	*	*tremolo	*	*	*	*	*	*	*	*	*	*	*	*	*	*	*	*
!	!	!	!	!	!	!	!	!	!	!	!	!	!	!	!	!	!	!	!	!	!	!	!	!	!LO:TX:a:i:t=Coda	!
8E\	.	8e/ 8G#X/	.	8b/ 8d/	.	(32fffn\LLL 32ffn\	.	8E\	.	32G/LLL	4C\	.	8b/ 8e/	.	8E\	.	8b\ 8g#X\	8ryy	.	(32ffn/LLL	8g#X\	.	8bb\	.	(32fffn\LLL	.
.	.	.	.	.	.	32eee\ 32ee\	.	.	.	32G/	.	.	.	.	.	.	.	.	.	32ee/	.	.	.	.	32eee\	.
.	.	.	.	.	.	32ddd\ 32dd\	.	.	.	32G/	.	.	.	.	.	.	.	.	.	32dd/	.	.	.	.	32ddd\	.
.	.	.	.	.	.	32bb\JJJ 32b\)	.	.	.	32G/JJ	.	.	.	.	.	.	.	.	.	32b/JJJ)	.	.	.	.	32bb\JJJ	.
8AA/	.	8e/ 8G#/	.	8a/ 8c/	.	8ccc\ 8cc\	.	8AA/	.	8G/J	.	.	8cc/ 8e/	.	8A\	.	8a/	8a\	.	8cc/	8a\	.	8aa\	.	8ccc\)	.
8r	.	8r	.	8r	.	8r	.	8r	.	8r	8r	.	8r	.	8r	.	8r	8ryy	.	8r	8ryy	.	8r	.	8r	.
=66	=66	=66	=66	=66	=66	=66	=66	=66	=66	=66	=66	=66	=66	=66	=66	=66	=66	=66	=66	=66	=66	=66	=66	=66	=66	=66
*	*	*	*	*	*	*	*	*	*	*rep	*rep	*	*	*	*	*	*	*	*	*	*	*	*	*	*	*
8F#\	.	8f#\ 8A#X\	.	8cc#X/ 8e/	.	(32ggg\LLL 32gg\	.	8F#\	.	32G/LLL	4C\	.	8cc#X/ 8f#/	.	8F#\	.	8cc#X\ 8a#X\	8ryy	.	(32gg#X/LLL	8a#X\	.	8ccc#X\	.	(32ggg\LLL	.
.	.	.	.	.	.	32fff#X\ 32ff#X\	.	.	.	32G/	.	.	.	.	.	.	.	.	.	32ff#X/	.	.	.	.	32fff#X\	.
.	.	.	.	.	.	32eee\ 32ee\	.	.	.	32G/	.	.	.	.	.	.	.	.	.	32ee/	.	.	.	.	32eee\	.
.	.	.	.	.	.	32ccc#X\JJJ 32cc#X\	.	.	.	32G/JJ	.	.	.	.	.	.	.	.	.	32cc#X/JJJ)	.	.	.	.	32ccc#X\JJJ)	.
8BB/	.	8f#\ 8B\	.	8dd/ 8d/	.	16ddd\ 16dd\)	.	8BB/	.	8G/J	.	.	16dd/ 16f#/	.	8B\	.	8b/	8b\	.	16dd/	16b\	.	8bb\	.	16ddd\	.
.	.	.	.	.	.	32r	.	.	.	.	.	.	32r	.	.	.	.	.	.	32r	32r	.	.	.	32r	.
.	.	.	.	.	.	32ddd\KLL 32dd'\	.	.	.	.	.	.	32dd\KLL	.	.	.	.	.	.	32dd/KLL	32dd\KLL	.	.	.	32ddd\KLL	.
8r	.	8r	.	8r	.	16.ddd\ 16.dd'\	.	8r	.	8r	8r	.	16.dd\	.	8r	.	8r	8ryy	.	16.dd/	16.dd\	.	8r	.	16.ddd\	.
.	.	.	.	.	.	32ddd\JJk 32dd'\	.	.	.	.	.	.	32dd\JJk	.	.	.	.	.	.	32dd/JJk	32dd\JJk	.	.	.	32ddd\JJk	.
*	*	*	*	*	*	*	*	*	*	*Xrep	*Xrep	*	*	*	*	*	*	*	*	*	*	*	*	*	*	*
*	*	*	*	*	*	*	*	*	*	*	*	*	*	*	*	*	*v	*v	*	*	*	*	*	*	*	*
*	*	*	*	*	*	*	*	*	*	*	*	*	*	*	*	*	*	*	*v	*v	*	*	*	*	*
=67	=67	=67	=67	=67	=67	=67	=67	=67	=67	=67	=67	=67	=67	=67	=67	=67	=67	=67	=67	=67	=67	=67	=67	=67
8C/	.	8r	.	8r	.	16.ddd\LL 16.dd\	.	8C/	.	8r	4C\	.	16.dd\LL	.	8r	.	8r	.	16.dd\LL	.	8r	.	16.ddd\LL	.
.	.	.	.	.	.	32ccc\JJk 32cc\	.	.	.	.	.	.	32cc\JJk	.	.	.	.	.	32cc\JJk	.	.	.	32ccc\JJk	.
8r	.	8e\L 8c\	.	8a/L 8c/	.	8ee\L 8e\	.	8r	.	32G/LLL	.	.	8e/L	.	8c\L	.	8cc\L 8a\	.	8e/L	.	8cc\L	.	8ee\L	.
.	.	.	.	.	.	.	.	.	.	32G/	.	.	.	.	.	.	.	.	.	.	.	.	.	.
.	.	.	.	.	.	.	.	.	.	32G/	.	.	.	.	.	.	.	.	.	.	.	.	.	.
.	.	.	.	.	.	.	.	.	.	32G/JJ	.	.	.	.	.	.	.	.	.	.	.	.	.	.
8r	.	8e\J 8c\	.	8a/J 8c/	.	8aa\J 8a\	.	8r	.	8G/J	8r	.	8a/J	.	8c\J	.	8cc\J 8a\	.	8a/J	.	8cc\J	.	8aa\J	.
=68	=68	=68	=68	=68	=68	=68	=68	=68	=68	=68	=68	=68	=68	=68	=68	=68	=68	=68	=68	=68	=68	=68	=68	=68
*	*	*	*	*	*	*	*	*	*	*rep	*rep	*	*	*	*	*	*	*	*	*	*	*	*	*
8D/	.	8r	.	8r	.	16.aa\LL 16.a\	.	8D\	.	8r	4C\	.	16.a/LL	.	8r	.	8r	.	16.a/LL	.	8r	.	16.aa\LL	.
.	.	.	.	.	.	32gg\JJk 32g\	.	.	.	.	.	.	32g/JJk	.	.	.	.	.	32g/JJk	.	.	.	32gg\JJk	.
8r	.	8d\L 8G\	.	8g/L 8B/	.	8dd\L 8d\	.	8r	.	32G/LLL	.	.	8d/L	.	8d\L	.	8b\L 8g\	.	8d/L	.	8b\L	.	8dd\L	.
.	.	.	.	.	.	.	.	.	.	32G/	.	.	.	.	.	.	.	.	.	.	.	.	.	.
.	.	.	.	.	.	.	.	.	.	32G/	.	.	.	.	.	.	.	.	.	.	.	.	.	.
.	.	.	.	.	.	.	.	.	.	32G/JJ	.	.	.	.	.	.	.	.	.	.	.	.	.	.
8r	.	8d\J 8G\	.	8g/J 8B/	.	8gg\J 8g\	.	8r	.	8G/J	8r	.	8g/J	.	8d\J	.	8b\J 8g\	.	8g/J	.	8b\J	.	8gg\J	.
*	*	*	*	*	*	*	*	*	*	*Xrep	*Xrep	*	*	*	*	*	*	*	*	*	*	*	*	*
=69	=69	=69	=69	=69	=69	=69	=69	=69	=69	=69	=69	=69	=69	=69	=69	=69	=69	=69	=69	=69	=69	=69	=69	=69
*	*	*	*	*	*	*	*	*	*	*rep	*rep	*	*	*	*	*	*	*	*Xtuplet	*	*	*	*	*
!	!	!	!	!	!	!LO:TUP:a:problem=klamra łukowa	!	!	!	!	!	!	!LO:TUP:a:problem=klamra łukowa	!	!	!	!	!	!	!	!LO:TUP:a:problem=klamra łukowa	!	!LO:TUP:a:problem=klamra łukowa	!
8D/	.	8r	.	8r	.	24ff#\LL 24f#\	.	8D\	.	8r	4C\	.	24f#/LL 24d/	.	8r	.	8r	.	24f#/LL 24d/	.	24dd\LL	.	24ff#\LL	.
.	.	.	.	.	.	24aa\ 24a\	.	.	.	.	.	.	24a/ 24f#/	.	.	.	.	.	24a/ 24f#/	.	24ff#\	.	24aa\	.
.	.	.	.	.	.	24ccc\JJ 24cc\	.	.	.	.	.	.	24cc/JJ 24a/	.	.	.	.	.	24cc/JJ 24a/	.	24aa\JJ	.	24ccc\JJ	.
8r	.	8d/L 8A/	.	8f#/L 8c/	.	16eee\ 16ee\	.	8r	.	32G/LLL	.	.	16ee\ 16cc\	.	8f#\L	.	8a/L 8d/	.	16ee\ 16cc\	.	16ccc\	.	16eee\	.
.	.	.	.	.	.	.	.	.	.	32G/	.	.	.	.	.	.	.	.	.	.	.	.	.	.
.	.	.	.	.	.	16r	.	.	.	32G/	.	.	16r	.	.	.	.	.	16r	.	16r	.	16r	.
.	.	.	.	.	.	.	.	.	.	32G/JJ	.	.	.	.	.	.	.	.	.	.	.	.	.	.
8r	.	8d/J 8A/	.	8f#/J 8c/	.	8ddd\ 8dd'\	.	8r	.	8G/J	8r	.	8dd\	.	8f#\J	.	8a/J 8d/	.	8dd\	.	8ddd\	.	8ddd\	.
*	*	*	*	*	*	*	*	*	*	*Xrep	*Xrep	*	*	*	*	*	*	*	*	*	*	*	*	*
!!LO:PB:g=original
=70	=70	=70	=70	=70	=70	=70	=70	=70	=70	=70	=70	=70	=70	=70	=70	=70	=70	=70	=70	=70	=70	=70	=70	=70
*	*	*	*	*	*	*	*	*	*	*	*	*	*^	*	*	*	*	*	*	*	*	*	*	*
16G\	.	8r	.	8r	.	16aa#X\ 16a#X\	.	16GG/	.	16G/	8C\	.	16a#X/	16g\	.	16g\	.	8r	.	16a#X/	.	16aa#X\	.	16aa#X\	.
16r	.	.	.	.	.	16r	.	16r	.	16r	.	.	16r	16ryy	.	16r	.	.	.	16r	.	16r	.	16r	.
4GG/	.	4d/ 4G/	.	4g/ 4B/	.	4bb\ 4b\	.	4GG/	.	4GT/	4C\	.	4b/	4g\	.	4G\	.	4g/ 4B/	.	4b/	.	4bb\	.	4bb^<\	.
*	*	*	*	*	*	*	*	*	*	*	*	*	*v	*v	*	*	*	*	*	*	*	*	*	*	*
=71	=71	=71	=71	=71	=71	=71	=71	=71	=71	=71	=71	=71	=71	=71	=71	=71	=71	=71	=71	=71	=71	=71	=71	=71
8C/	.	8r	.	8r	.	16.ddd\LL 16.bb\	.	8C/	.	8r	4C\	.	16.dd\LL 16.b\	.	8r	.	8r	.	16.dd/LL 16.b/	.	16.bb\LL	.	16.ddd\LL	.
.	.	.	.	.	.	32ccc\JJk 32aa\	.	.	.	.	.	.	32cc\JJk 32a\	.	.	.	.	.	32cc/JJk 32a/	.	32aa\JJk	.	32ccc\JJk	.
8r	.	8e-X\L 8c\	.	8a/L 8c/	.	8ee-X\L 8cc\	.	8r	.	32G/LLL	.	.	8e-X/L 8c/	.	8c\L	.	8cc\L 8a\	.	8e-X/L 8c/	.	8cc\L	.	8ee-X\L	.
.	.	.	.	.	.	.	.	.	.	32G/	.	.	.	.	.	.	.	.	.	.	.	.	.	.
.	.	.	.	.	.	.	.	.	.	32G/	.	.	.	.	.	.	.	.	.	.	.	.	.	.
.	.	.	.	.	.	.	.	.	.	32G/JJ	.	.	.	.	.	.	.	.	.	.	.	.	.	.
8C/	.	8e-\J 8c\	.	8a/J 8c/	.	8aa\J 8cc\	.	8C/	.	8G/J	8r	.	8a/J 8c/	.	8c\J	.	8cc\J 8a\	.	8a/J 8c/	.	8cc\J	.	8aa\J	.
=72	=72	=72	=72	=72	=72	=72	=72	=72	=72	=72	=72	=72	=72	=72	=72	=72	=72	=72	=72	=72	=72	=72	=72	=72
*	*	*	*	*	*	*	*	*	*	*rep	*rep	*	*	*	*	*	*	*	*	*	*	*	*	*
8D\	.	8r	.	8r	.	16.ccc\LL 16.aa\	.	8D\	.	8r	4C\	.	16.cc/LL 16.a/	.	8r	.	8r	.	16.cc/LL 16.a/	.	16.aa\LL	.	16.ccc\LL	.
.	.	.	.	.	.	32bb\JJk 32gg\	.	.	.	.	.	.	32b/JJk 32g/	.	.	.	.	.	32b/JJk 32g/	.	32gg\JJk	.	32bb\JJk	.
8r	.	8d/L 8G/	.	8g/L 8B/	.	8dd\L 8b\	.	8r	.	32G/LLL	.	.	8d/L 8B/	.	8d\L	.	8b\L 8g\	.	8d/L 8B/	.	8b\L	.	8dd\L	.
.	.	.	.	.	.	.	.	.	.	32G/	.	.	.	.	.	.	.	.	.	.	.	.	.	.
.	.	.	.	.	.	.	.	.	.	32G/	.	.	.	.	.	.	.	.	.	.	.	.	.	.
.	.	.	.	.	.	.	.	.	.	32G/JJ	.	.	.	.	.	.	.	.	.	.	.	.	.	.
8D\	.	8d/J 8G/	.	8g/J 8B/	.	8gg\J 8b\	.	8D\	.	8G/J	8r	.	8g/J 8B/	.	8d\J	.	8b\J 8g\	.	8g/J 8B/	.	8b\J	.	8gg\J	.
*	*	*	*	*	*	*	*	*	*	*Xrep	*Xrep	*	*	*	*	*	*	*	*	*	*	*	*	*
=73	=73	=73	=73	=73	=73	=73	=73	=73	=73	=73	=73	=73	=73	=73	=73	=73	=73	=73	=73	=73	=73	=73	=73	=73
*	*	*	*	*	*	*	*	*	*	*rep	*rep	*	*Xtuplet	*	*	*	*	*	*tuplet	*	*	*	*	*
!	!	!	!	!	!	!LO:TUP:a:problem=klamra łukowa	!	!	!	!	!	!	!	!	!	!	!	!	!LO:TUP:a:problem=klamra łukowa	!	!LO:TUP:a:problem=klamra łukowa	!	!LO:TUP:a:problem=klamra łukowa	!
!	!	!	!	!	!	!	!	!	!	!	!	!	!	!	!	!	!	!	!LO:TUP:b	!	!	!	!	!
8D\	.	8r	.	8r	.	24ff#\LL 24dd\	.	8D\	.	8r	4C\	.	24f#/LL 24d/	.	8r	.	8r	.	24f#/LL 24d/	.	24dd\LL	.	24ff#\LL	.
.	.	.	.	.	.	24aa\ 24ff#\	.	.	.	.	.	.	24a/ 24f#/	.	.	.	.	.	24a/ 24f#/	.	24ff#\	.	24aa\	.
.	.	.	.	.	.	24ccc\JJ 24aa\	.	.	.	.	.	.	24cc/JJ 24a/	.	.	.	.	.	24cc/JJ 24a/	.	24aa\JJ	.	24ccc\JJ	.
8r	.	8d/L 8A/	.	8f#/L 8c/	.	16eee\ 16ccc\	.	8r	.	32G/LLL	.	.	16ee\ 16cc\	.	8f#\L	.	8a/L 8d/	.	16ee\ 16cc\	.	16ccc\	.	16eee\	.
.	.	.	.	.	.	.	.	.	.	32G/	.	.	.	.	.	.	.	.	.	.	.	.	.	.
.	.	.	.	.	.	16r	.	.	.	32G/	.	.	16r	.	.	.	.	.	16r	.	16r	.	16r	.
.	.	.	.	.	.	.	.	.	.	32G/JJ	.	.	.	.	.	.	.	.	.	.	.	.	.	.
*	*	*	*	*	*	*	*	*	*	*Xtremolo	*Xtremolo	*	*	*	*	*	*	*	*	*	*	*	*	*
8d\ 8D\	.	8d/J 8A/	.	8f#/J 8c/	.	8ddd\ 8ff#\	.	8D\	.	8G/J	8r	.	8dd\ 8a\	.	8f#\J	.	8a/J 8d/	.	8dd\	.	8ff#\	.	8ddd\	.
*	*	*	*	*	*	*	*	*	*	*Xrep	*Xrep	*	*	*	*	*	*	*	*	*	*	*	*	*
*	*	*	*	*	*	*	*	*	*	*v	*v	*	*	*	*	*	*	*	*	*	*	*	*	*
=74	=74	=74	=74	=74	=74	=74	=74	=74	=74	=74	=74	=74	=74	=74	=74	=74	=74	=74	=74	=74	=74	=74	=74
4.r	.	4.r	.	4.r	.	4.r	.	4.r	.	4.r	.	4.r	.	4.r	.	4.r	.	4.r	.	4.r	.	4.r	.
.	.	.	.	.	.	.	f	.	.	.	.	.	.	.	.	.	.	.	.	.	.	.	.
=75	=75	=75	=75	=75	=75	=75	=75	=75	=75	=75	=75	=75	=75	=75	=75	=75	=75	=75	=75	=75	=75	=75	=75
*	*	*	*	*	*	*	*	*	*	*^	*	*	*	*	*	*	*	*	*	*	*	*	*
!	!LO:DY:rj	!	!LO:DY:rj	!	!	!	!	!	!	!	!	!	!	!	!	!	!	!	!	!	!	!	!	!LO:DY:rj
16.G\LL	f	16.g\LL 16.G\	f	16.b/LL 16.d/ 16.G/	.	16.bb\LL 16.dd\ 16.d\	.	16.GG/LL	.	16G/LL	4C\	.	16.b/LL 16.g/	.	16.G\LL	.	16.g/LL 16.G/	f	16.b\LL	.	16.gg\LL	.	16.bb\LL	f
.	.	.	.	.	.	.	.	.	.	32G/L	.	.	.	.	.	.	.	.	.	.	.	.	.	.
32B\JJk	.	32g\JJk 32G\	.	32dd/JJk	.	32ddd\JJk	.	32BB/JJk	.	32G/JJJ	.	.	32dd/JJk 32g/	.	32B\JJk	.	32g/JJk 32G/	.	32dd\JJk	.	32gg\JJk	.	32ddd\JJk	.
*	*	*	*	*	*	*	*	*	*	*Xtremolo	*	*	*	*	*	*	*	*	*	*	*	*	*	*
8c\L	.	8g\L 8G\	.	8ee\L	.	8eee\L	.	8C/L	.	8G/L	.	.	8ee/L 8cc/	.	8c\L	.	8g/L 8G/	.	8ee\L	.	8gg\L	.	8eee\L	.
8B\J	.	8g\J 8G\	.	8dd\J	.	8ddd\J	.	8BB/J	.	8G/J	8r	.	8dd/J 8g/	.	8B\J	.	8g/J 8G/	.	8dd\J	.	8gg\J	.	8ddd\J	.
!!LO:PB:g=original
=76	=76	=76	=76	=76	=76	=76	=76	=76	=76	=76	=76	=76	=76	=76	=76	=76	=76	=76	=76	=76	=76	=76	=76	=76
16.A\LL	.	16.a\LL 16.A\	.	16.ee\LL	.	16.ddd\LL	.	16.AA/LL	.	8G/L	8C\	.	16.dd/LL 16.d/	.	16.A\LL	.	16.e/LL 16.A/	.	16.dd\LL	.	16.ee\LL	.	16.ddd\LL	.
32A\JJk	.	32a\JJk 32A\	.	32ff#\JJk 32dd\	.	32ccc\JJk	.	32AA/JJk	.	.	.	.	32cc/JJk 32f#/	.	32A\JJk	.	32f#/JJk 32A/	.	32cc\JJk	.	32ff#\JJk	.	32ccc\JJk	.
*	*	*	*	*	*	*	*	*	*	*tremolo	*	*	*	*	*	*	*	*	*	*	*	*	*	*
8G\L	.	8g\L 8B\	.	8gg\L 8dd\	.	8bb\L	.	8GG/L	.	32G/LL	8r	.	8b/L 8g/	.	8G\L	.	8g/L 8G/	.	8b/L	.	8gg\L	.	8bb\L	.
.	.	.	.	.	.	.	.	.	.	32G/	.	.	.	.	.	.	.	.	.	.	.	.	.	.
.	.	.	.	.	.	.	.	.	.	32G/	.	.	.	.	.	.	.	.	.	.	.	.	.	.
.	.	.	.	.	.	.	.	.	.	32G/JJ	.	.	.	.	.	.	.	.	.	.	.	.	.	.
*	*	*	*	*	*	*	*	*	*	*Xtremolo	*	*	*	*	*	*	*	*	*	*	*	*	*	*
8D#X\J	.	8f#\J 8B\	.	8ff#\J 8b\	.	8aa\J	.	8D#X/J	.	8G/J	8C\	.	8a/J 8f#/	.	8D#X\J	.	8f#/J 8B/	.	8a/J	.	8ff#\J	.	8aa\J	.
=77	=77	=77	=77	=77	=77	=77	=77	=77	=77	=77	=77	=77	=77	=77	=77	=77	=77	=77	=77	=77	=77	=77	=77	=77
.	.	.	.	.	.	(8qaa/	.	.	.	.	.	.	(8qa/	.	.	.	.	.	.	.	(8qaa/	.	.	.
*	*	*	*	*	*	*	*	*	*	*	*	*	*	*	*	*	*^	*	*	*	*	*	*	*
16E\	.	16g\ 16B\	.	16ee\ 16b\	.	16.gg\LL)	.	16E\	.	4.r	4.r	.	16.g/LL)	.	16E\	.	16g/ 16B/	4ryy	.	16ee/ 16g/	.	16.gg\LL)	.	4.r	.
16r	.	16r	.	16r	.	.	.	16r	.	.	.	.	.	.	16r	.	16r	.	.	16r	.	.	.	.	.
.	.	.	.	.	.	32ff#\JJk|	.	.	.	.	.	.	32f#/JJk|	.	.	.	.	.	.	.	.	32ff#\JJk|	.	.	.
16E\	.	16g\ 16B\	.	16ee\ 16b\	.	16ee'\LL	.	16E\	.	.	.	.	16e'/LL	.	16E\	.	16g/ 16B/	.	.	16ee/ 16g/	.	16ee'\LL	.	.	.
16r	.	16r	.	16r	.	16ff#'\	.	16r	.	.	.	.	16f#'/	.	16r	.	16r	.	.	16ryy	.	16ff#'\	.	.	.
8C/	.	8e\ 8c\	.	8ee/ 8e/	.	16gg'\	.	8C/	.	.	.	.	16g'/	.	8C/	.	16g/LL	8c\	.	8ee/ 8g/	.	16gg'\	.	.	.
.	.	.	.	.	.	16aa'\JJ	.	.	.	.	.	.	16a'/JJ	.	.	.	16a/JJ	.	.	.	.	16aa'\JJ	.	.	.
*	*	*	*	*	*	*	*	*	*	*	*	*	*	*	*	*	*v	*v	*	*	*	*	*	*	*
=78	=78	=78	=78	=78	=78	=78	=78	=78	=78	=78	=78	=78	=78	=78	=78	=78	=78	=78	=78	=78	=78	=78	=78	=78
16BB/	.	16f#\ 16B\	.	16dd#X/ 16f#/	.	16bb\	.	16BB/	.	8r	8r	.	16b/	.	16BB/	.	16b/ 16B/	.	16dd#X/ 16f#/	.	16bb\|	.	4.r	.
16r	.	16r	.	16r	.	16r	.	16r	.	.	.	.	16r	.	16r	.	16r	.	16r	.	16r	.	.	.
.	.	.	.	.	.	.	.	.	.	32qqG/LLL	.	.	.	.	.	.	.	.	.	.	.	.	.	.
.	.	.	.	.	.	.	.	.	.	32qqG/JJJ	.	.	.	.	.	.	.	.	.	.	.	.	.	.
4B^\	.	4f#\ 4B^<\	.	4dd#/ 4f#^/	.	4ff#\ 4b^<\	.	4BB/	.	4G/	4C\	.	4f#/ 4d#X^/	.	4B^<\	.	4b/ 4B^/	.	4dd#/ 4f#^/	.	4ff#^<\|	.	.	.
=79	=79	=79	=79	=79	=79	=79	=79	=79	=79	=79	=79	=79	=79	=79	=79	=79	=79	=79	=79	=79	=79	=79	=79	=79
16.G\LL	.	16.g\LL 16.G\	.	16.b/LL 16.d/ 16.G/	.	16.bb\LL 16.dd\ 16.d\	.	16.G\LL	.	16G/LL	4C\	.	16.b/LL 16.g/	.	16.G\LL	.	16.g/LL 16.B/	.	16.b\LL	.	16.gg\LL	.	16.bb\LL	.
.	.	.	.	.	.	.	.	.	.	32G/L	.	.	.	.	.	.	.	.	.	.	.	.	.	.
32F#\JJk	.	32f#\JJk 32A\	.	32dd/JJk	.	32ddd\JJk	.	32F#\JJk	.	32G/JJJ	.	.	32dd/JJk 32a/	.	32F#\JJk	.	32a/JJk 32d/	.	32dd\JJk 32a\	.	32aa\JJk	.	32ddd\JJk	.
8E\L	.	8g\L 8G\	.	8ee\L	.	8eee\L	.	8E\L	.	8G/L	.	.	8ee/L 8g/	.	8E\L	.	8b\L 8g\	.	8ee\L 8g\	.	8gg\L	.	8eee\L	.
8D\J	.	8a\J 8c\	.	8ff#\J	.	8ddd\J	.	8D\J	.	8G/J	8r	.	8ff#/J 8cc/	.	8D\J	.	8cc\J 8a\	.	8ff#\J 8cc\	.	8aa\J	.	8fff#\J	.
=80	=80	=80	=80	=80	=80	=80	=80	=80	=80	=80	=80	=80	=80	=80	=80	=80	=80	=80	=80	=80	=80	=80	=80	=80
*	*	*	*	*	*	*	*	*	*	*	*	*	*	*	*	*	*^	*	*	*	*	*	*	*
*	*	*	*	*	*	*	*	*	*	*rep	*rep	*	*	*	*	*	*	*	*	*	*	*	*	*	*
16C/	.	16e\ 16c\	.	16.aa\LL 16.ff#\	.	16.aaa\LL 16.fff#\	.	16C/	.	16G/LL	4C\	.	16.aa\LL 16.ff#\	.	16C/	.	16a/	16a\	.	16.ff#\LL	.	16.aa\LL	.	16.aaa\LL	.
16r	.	16r	.	.	.	.	.	16r	.	32G/L	.	.	.	.	16r	.	16r	16ryy	.	.	.	.	.	.	.
.	.	.	.	32gg\JJk 32ee\	.	32ggg\JJk 32eee\	.	.	.	32G/JJJ	.	.	32gg\JJk 32ee\	.	.	.	.	.	.	32ee\JJk	.	32gg\JJk	.	32ggg\JJk	.
8C/L	.	8a\L 8c\	.	8ee\L 8cc\	.	8eee\L 8ccc\	.	8C/L	.	8G/L	.	.	8ee\L 8cc\	.	8c\L	.	8a/L	8a\L	.	8cc\L	.	8ee\L	.	8eee\L	.
8C/J	.	8e\J 8c\	.	8cc\J 8a\	.	8ccc\J 8aa\	.	8C/J	.	8G/J	8r	.	8cc\J 8a\	.	8c\J	.	8a/J	8a\J	.	8cc\J 8a\	.	8aa\J	.	8ddd\J	.
*	*	*	*	*	*	*	*	*	*	*Xrep	*Xrep	*	*	*	*	*	*	*	*	*	*	*	*	*	*
*	*	*	*	*	*	*	*	*	*	*	*	*	*	*	*	*	*v	*v	*	*	*	*	*	*	*
=81	=81	=81	=81	=81	=81	=81	=81	=81	=81	=81	=81	=81	=81	=81	=81	=81	=81	=81	=81	=81	=81	=81	=81	=81
!	!	!	!	!LO:TUP:a:problem=klamra łukowa	!	!LO:TUP:a:problem=klamra łukowa	!	!	!	!	!	!	!	!	!	!	!	!	!LO:TUP:a:problem=klamra łukowa	!	!LO:TUP:a:problem=klamra łukowa	!	!LO:TUP:a:problem=klamra łukowa	!
16D\	.	16d\ 16c\	.	24f#/LL 24d/	.	24ff#\LL 24dd\	.	16D\	.	16G/	16C\	.	24f#/LL 24d/	.	16c\	.	16a/ 16d/	.	24f#/LL 24d/	.	24dd\LL	.	24ff#\LL	.
.	.	.	.	24a/ 24f#/	.	24aa\ 24ff#\	.	.	.	.	.	.	24a/ 24f#/	.	.	.	.	.	24a/ 24f#/	.	24ff#\	.	24aa\	.
16r	.	16r	.	.	.	.	.	16r	.	16r	16r	.	.	.	16r	.	16r	.	.	.	.	.	.	.
.	.	.	.	24cc/JJ 24a/	.	24ccc\JJ 24aa\	.	.	.	.	.	.	24cc/JJ 24a/	.	.	.	.	.	24cc/JJ 24a/	.	24aa\JJ	.	24ccc\JJ	.
16D\	.	16f#\ 16A\	.	16ee\ 16cc\	.	16eee\ 16ccc\	.	16D\	.	16G/	16C\	.	16ee\ 16cc\	.	16c\	.	16a/ 16d/	.	16ee\ 16cc\	.	16ccc\	.	16eee\	.
16r	.	16r	.	16r	.	16r	.	16r	.	16ryy	16r	.	16r	.	16r	.	16r	.	16r	.	16r	.	16r	.
8D\	.	8f#\ 8A\	.	8ff#\ 8a\	.	(8ddd\	.	8D\	.	8GTT/	8C\	.	8dd/ 8f#/	.	8c\	.	8a/ 8d/	.	8dd/ 8f#/	.	8ff#\	.	8ddd\|	.
!!LO:PB:g=original
=82	=82	=82	=82	=82	=82	=82	=82	=82	=82	=82	=82	=82	=82	=82	=82	=82	=82	=82	=82	=82	=82	=82	=82	=82
16G\	.	16g\ 16B\	.	16gg\ 16b\	.	16gg\)|	.	16G\	.	16G/	8C\	.	16b/ 16g/	.	16G\ 16GG\	.	16g/ 16B/	.	16b/ 16g/	.	16gg\	.	16gg\	.
16r	.	16r	.	16r	.	16r	.	16r	.	16r	.	.	16r	.	16r	.	16r	.	16r	.	16r	.	16r	.
4GG^>/	.	4g\ 4B\	.	4gg\ 4b\ 4d\	.	4ggg^<\	.	4G\	.	4GT/	4C\	.	4gg\ 4g\	.	4G\ 4GG\	.	4b\ 4g\	.	4gg\ 4b\	.	4bb^\	.	4ggg\	.
=83	=83	=83	=83	=83	=83	=83	=83	=83	=83	=83	=83	=83	=83	=83	=83	=83	=83	=83	=83	=83	=83	=83	=83	=83
*	*	*	*	*	*	*	*	*	*	*	*	*	*	*	*	*	*^	*	*	*	*	*	*	*
!	!	!	!	!	!	!	!	!	!	!	!	!	!	!	!	!	!	!	!	!	!	!	!	!LO:TX:t=P:problem=w taktach 83-87 powtórka partii vl 1	!
!	!	!	!	!	!	!	!	!	!	!	!	!	!	!	!	!	!	!	!	!	!	!	!	!LO:TX:a:i:t=Col Vo. 1o.	!
16C/	.	16e\ 16c\	.	16a/	.	16aa\|	.	16C/	.	16G/	8C\	.	16a/	.	16c\	.	16a/	16a\	.	16ee\ 16cc\	.	16aa\	.	16aa\yy|	.
16r	.	16r	.	16r	.	16r	.	16r	.	16r	.	.	16r	.	16r	.	16r	16ryy	.	16r	.	16r	.	16ryy	.
4c^\	.	4e\ 4c\	.	4ee\ 4a\	.	4eee^<\|	.	4C/	.	4GT/	4C\	.	4ee\ 4a\	.	4C/	.	4a/	4a\	.	4ee\ 4cc\	.	4aa^\	.	4eee^\yy|	.
*	*	*	*	*	*	*	*	*	*	*	*	*	*	*	*	*	*v	*v	*	*	*	*	*	*	*
=84	=84	=84	=84	=84	=84	=84	=84	=84	=84	=84	=84	=84	=84	=84	=84	=84	=84	=84	=84	=84	=84	=84	=84	=84
*	*	*tremolo	*	*	*	*	*	*tremolo	*	*	*tremolo	*	*tremolo	*	*	*	*tremolo	*	*Xtuplet	*	*Xtuplet	*	*Xtuplet	*
!	!	!	!	!LO:TUP:a	!	!LO:TUP:a	!	!	!	!	!	!	!	!	!	!	!	!	!	!	!	!	!	!
8d\L	.	8d\L 8c\	.	24dd\LL	.	24ddd\LL	.	8D\L	.	8G/L	8C\L	.	8cc/L 8a/	.	8D\L	.	8a/L 8d/	.	24dd\LL	.	24dd\LLyy	.	24ddd\LLyy	.
.	.	.	.	24cc#X\	.	24ccc#X\	.	.	.	.	.	.	.	.	.	.	.	.	24cc#X\	.	24cc#X\yy	.	24ccc#X\yyyy	.
.	.	.	.	24dd\JJ	.	24ddd\JJ	.	.	.	.	.	.	.	.	.	.	.	.	24dd\JJ	.	24dd\JJyy	.	24ddd\JJyy	.
!	!	!	!	!LO:TUP:a	!	!LO:TUP:a	!	!	!	!	!	!	!	!	!	!	!	!	!	!	!	!	!	!
8D\	.	8d\ 8c\	.	24ee\LL	.	24eee\LL	.	8D\	.	32G/LL	8C\	.	8cc/ 8a/	.	8c\	.	8a/ 8d/	.	24ee\LL	.	24ee\LLyy	.	24eee\LLyy	.
.	.	.	.	.	.	.	.	.	.	32G/	.	.	.	.	.	.	.	.	.	.	.	.	.	.
.	.	.	.	24dd\	.	24ddd\	.	.	.	.	.	.	.	.	.	.	.	.	24dd\	.	24dd\yy	.	24ddd\yy	.
.	.	.	.	.	.	.	.	.	.	32G/	.	.	.	.	.	.	.	.	.	.	.	.	.	.
.	.	.	.	24ee\JJ	.	24eee\JJ	.	.	.	.	.	.	.	.	.	.	.	.	24ee\JJ	.	24ee\JJyy	.	24eee\JJyy	.
.	.	.	.	.	.	.	.	.	.	32G/JJ	.	.	.	.	.	.	.	.	.	.	.	.	.	.
!	!	!	!	!LO:TUP:a	!	!LO:TUP:a	!	!	!	!	!	!	!	!	!	!	!	!	!	!	!	!	!	!
8D\J	.	8d\J 8c\	.	24ff#\LL	.	24fff#\LL	.	8D\J	.	8G/J	8C\J	.	8cc/J 8a/	.	8c\J	.	8a/J 8d/	.	24ff#\LL	.	24ff#\LLyy	.	24fff#\LLyy	.
.	.	.	.	24ee\	.	24eee\	.	.	.	.	.	.	.	.	.	.	.	.	24ee\	.	24ee\yy	.	24eee\yy	.
.	.	.	.	24ff#\JJ	.	24fff#\JJ	.	.	.	.	.	.	.	.	.	.	.	.	24ff#\JJ	.	24ff#\JJyy	.	24fff#\JJyy	.
*	*	*Xtremolo	*	*	*	*	*	*Xtremolo	*	*	*Xtremolo	*	*Xtremolo	*	*	*	*Xtremolo	*	*	*	*	*	*	*
=85	=85	=85	=85	=85	=85	=85	=85	=85	=85	=85	=85	=85	=85	=85	=85	=85	=85	=85	=85	=85	=85	=85	=85	=85
16GG/	.	16d\ 16B\	.	16.aa\LL	.	16.aaa\LL	.	16GG/	.	16G/	8C\	.	16.a/LL	.	16B\	.	16g/ 16B/	.	16.aa\LL	.	16.aa\LLyy	.	16.aaa\LLyy	.
16r	.	16r	.	.	.	.	.	16r	.	16r	.	.	.	.	16r	.	16r	.	.	.	.	.	.	.
.	.	.	.	32gg\JJk	.	32ggg\JJk	.	.	.	.	.	.	32g/JJk	.	.	.	.	.	32gg\JJk	.	32gg\JJkyy	.	32ggg\JJkyy	.
4G\	.	4g\ 4G\	.	4b\	.	4bb\	.	4GG/	.	4GT/	4C\	.	4B/	.	4G\	.	4g/ 4B/	.	4b\	.	4b\yy	.	4bb\yy	.
=86	=86	=86	=86	=86	=86	=86	=86	=86	=86	=86	=86	=86	=86	=86	=86	=86	=86	=86	=86	=86	=86	=86	=86	=86
*	*	*	*	*	*	*	*	*	*	*	*	*	*	*	*	*	*^	*	*	*	*	*	*	*
*	*	*	*	*	*	*	*	*	*	*rep	*rep	*	*	*	*	*	*	*	*	*	*	*	*	*	*
16G\	.	16g\ 16B\	.	16dd\	.	16ddd\	.	16G\	.	16G/	8C\	.	16d/	.	16G\	.	16g/ 16B/	8ryy	.	16dd\ 16b\	.	16dd\yy	.	16ddd\yy	.
16r	.	16r	.	16r	.	16r	.	16r	.	16r	.	.	16r	.	16r	.	16r	.	.	16r	.	16ryy	.	16ryy	.
4E\	.	4g\ 4B\	.	4gg\ 4b\ 4e\	.	4ggg^<\	.	4E\	.	4GT/	4C\	.	4g/	.	4E\	.	4b/	4g\	.	4gg\ 4b\	.	4gg\yy	.	4ggg^\yy	.
*	*	*	*	*	*	*	*	*	*	*Xrep	*Xrep	*	*	*	*	*	*	*	*	*	*	*	*	*	*
=87	=87	=87	=87	=87	=87	=87	=87	=87	=87	=87	=87	=87	=87	=87	=87	=87	=87	=87	=87	=87	=87	=87	=87	=87	=87
*	*	*	*	*	*	*	*	*	*	*rep	*rep	*	*	*	*	*	*	*	*	*	*	*	*	*	*
16C/	.	16a\ 16c\	.	16a/	.	16aa\	.	16C/	.	16G/	8C\	.	16a/	.	16C/	.	16a/	16a\	.	16ee\ 16cc\	.	16aa\yy	.	16aa\yy	.
16r	.	16r	.	16r	.	16r	.	16r	.	16r	.	.	16r	.	16r	.	16r	16ryy	.	16r	.	16ryy	.	16ryy	.
!LO:TX:t=P:problem=i tu niestety utwór się urywa	!	!LO:TX:t=P:problem=i tu niestety utwór się urywa	!	!LO:TX:t=P:problem=i tu niestety utwór się urywa	!	!LO:TX:t=P:problem=i tu niestety utwór się urywa	!	!LO:TX:t=P:problem=i tu niestety utwór się urywa	!	!LO:TX:t=P:problem=i tu niestety utwór się urywa	!	!	!LO:TX:t=P:problem=i tu niestety utwór się urywa	!	!LO:TX:t=P:problem=i tu niestety utwór się urywa	!	!LO:TX:t=P:problem=i tu niestety utwór się urywa	!	!	!LO:TX:t=P:problem=i tu niestety utwór się urywa	!	!LO:TX:t=P:problem=i tu niestety utwór się urywa	!	!LO:TX:t=P:problem=i tu niestety utwór się urywa	!
4C#X/	.	4g\ 4B-X\	.	4ee\ 4b-X\	.	4eee^<\	.	4C#X/	.	4GT/	4C\	.	4e/	.	4C#X/	.	4b-X\ 4g\	4ryy	.	4ee\ 4b-X\	.	4ee\yy	.	4eee^\yy	.
*	*	*	*	*	*	*	*	*	*	*Xrep	*Xrep	*	*	*	*	*	*	*	*	*	*	*	*	*	*
*	*	*	*	*	*	*	*	*	*	*v	*v	*	*	*	*	*	*v	*v	*	*	*	*	*	*	*
==	==	==	==	==	==	==	==	==	==	==	==	==	==	==	==	==	==	==	==	==	==	==	==
*-	*-	*-	*-	*-	*-	*-	*-	*-	*-	*-	*-	*-	*-	*-	*-	*-	*-	*-	*-	*-	*-	*-	*-
!!!system-decoration: [(s1,s2,s3,s4,s5,s6,s7,s8)][([(s9,s10)]s11,s12)]
!!!RDF**kern: > = above
!!!RDF**kern: < = below
!!!EED: Leszek Kubiak
!!!EST: 2021-06-19
!!!ENC: Andrzej Gręziak
!!!END: 2021-06-04
!!!RDF**kern: | = vertical stroke
